%
(1001)
(T1  D=12.7 CR=0 - ZMIN=-100.5 - flat end mill)
G90 G94
G17
G21
G28 G91 Z0
G90

(Pocket1)
M9
T1 M6
S24000 M3
G54
G0 X231.456 Y5.206
Z15
Z11.769
G1 X231.594 Y5.294 Z11.147 F6000
G2 X231.981 Y5.516 Z10.684 I3.189 J-5.121
X232.54 Y5.774 Z10.5 I2.801 J-5.343
X237.024 Y-5.427 Z9.838 I2.242 J-5.6
X232.54 Y5.774 Z9.176 I-2.242 J5.6
X237.024 Y-5.427 Z8.515 I2.242 J-5.6
X232.54 Y5.774 Z7.853 I-2.242 J5.6
X237.024 Y-5.427 Z7.191 I2.242 J-5.6
X232.54 Y5.774 Z6.529 I-2.242 J5.6
X237.024 Y-5.427 Z5.867 I2.242 J-5.6
X232.54 Y5.774 Z5.206 I-2.242 J5.6
X237.024 Y-5.427 Z4.544 I2.242 J-5.6
X232.54 Y5.774 Z3.882 I-2.242 J5.6
X237.024 Y-5.427 Z3.22 I2.242 J-5.6
X232.54 Y5.774 Z2.558 I-2.242 J5.6
X237.024 Y-5.427 Z1.897 I2.242 J-5.6
X232.54 Y5.774 Z1.235 I-2.242 J5.6
X237.024 Y-5.427 Z0.573 I2.242 J-5.6
X232.54 Y5.774 Z-0.089 I-2.242 J5.6
X240.815 Y0.174 Z-0.5 I2.242 J-5.6
G1 X240.831 Y-176.635
G2 X236.978 Y-180.488 I-3.853
G1 X-236.726 Y-180.517
G2 X-240.579 Y-176.665 J3.853
G1 X-240.611 Y176.942
G2 X-236.758 Y180.795 I3.853
G1 X236.946 Y180.824
G2 X240.799 Y176.972 J-3.853
G1 X240.815 Y0.174
G2 X236.134 Y-6.849 I-7.607 J-0.001
G3 X231.454 Y-13.871 I2.926 J-7.022
G1 X231.467 Y-167.273
G2 X227.615 Y-171.126 I-3.853
G1 X-227.364 Y-171.154
G2 X-231.217 Y-167.302 J3.853
G1 X-231.248 Y167.58
G2 X-227.395 Y171.433 I3.853
G1 X227.584 Y171.461
G2 X231.437 Y167.609 J-3.853
G1 X231.454 Y-13.871
G2 X226.773 Y-20.893 I-7.607 J-0.001
G3 X222.092 Y-27.916 I2.926 J-7.022
G1 X222.104 Y-157.911
G2 X218.251 Y-161.764 I-3.853
G1 X-218.002 Y-161.791
G2 X-221.856 Y-157.938 J3.853
G1 X-221.884 Y158.218
G2 X-218.032 Y162.071 I3.853
G1 X218.222 Y162.098
G2 X222.075 Y158.245 J-3.853
G1 X222.092 Y-27.916
G2 X217.412 Y-34.938 I-7.607 J-0.001
G3 X212.731 Y-41.96 I2.926 J-7.022
G1 X212.741 Y-148.549
G2 X208.888 Y-152.402 I-3.853
G1 X-208.641 Y-152.428
G2 X-212.494 Y-148.575 J3.853
G1 X-212.521 Y148.856
G2 X-208.668 Y152.709 I3.853
G1 X208.86 Y152.735
G2 X212.714 Y148.882 J-3.853
G1 X212.731 Y-41.96
G2 X208.05 Y-48.983 I-7.607 J-0.001
G3 X203.37 Y-56.005 I2.926 J-7.022
G1 X203.377 Y-139.187
G2 X199.525 Y-143.04 I-3.853
G1 X-199.279 Y-143.065
G2 X-203.132 Y-139.212 J3.853
G1 X-203.157 Y139.494
G2 X-199.305 Y143.347 I3.853
G1 X199.499 Y143.372
G2 X203.352 Y139.519 J-3.853
G1 X203.37 Y-56.005
G2 X198.689 Y-63.028 I-7.607 J-0.001
G3 X194.008 Y-70.05 I2.926 J-7.022
G1 X194.014 Y-129.825
G2 X190.161 Y-133.678 I-3.853
G1 X-189.917 Y-133.702
G2 X-193.77 Y-129.849 J3.853
G1 X-193.794 Y130.132
G2 X-189.941 Y133.985 I3.853
G1 X190.137 Y134.009
G2 X193.99 Y130.156 J-3.853
G1 X194.008 Y-70.05
G2 X189.328 Y-77.072 I-7.607 J-0.001
G3 X184.647 Y-84.095 I2.926 J-7.022
G1 X184.65 Y-120.463
G2 X180.798 Y-124.316 I-3.853
G1 X-180.555 Y-124.339
G2 X-184.409 Y-120.486 J3.853
G1 X-184.431 Y120.77
G2 X-180.578 Y124.623 I3.853
G1 X180.775 Y124.646
G2 X184.629 Y120.793 J-3.853
G1 X184.647 Y-84.095
G2 X179.966 Y-91.117 I-7.607 J-0.001
G3 X175.286 Y-98.139 I2.926 J-7.022
G1 X175.287 Y-111.101
G2 X171.434 Y-114.954 I-3.853
G1 X-171.194 Y-114.975
G2 X-175.047 Y-111.123 J3.853
G1 X-175.067 Y111.408
G2 X-171.215 Y115.261 I3.853
G1 X171.413 Y115.282
G2 X175.267 Y111.43 J-3.853
G1 X175.286 Y-98.139
G2 X166.855 Y-105.997 I-7.877 J-0.001
G3 X155.337 Y-105.592 I-11.508 J-163.309
G1 X-161.832 Y-105.612
G2 X-165.685 Y-101.76 J3.853
G1 X-165.704 Y102.046
G2 X-161.851 Y105.899 I3.853
G1 X162.052 Y105.919
G2 X165.905 Y102.067 J-3.853
G1 X165.924 Y-101.739
G2 X162.071 Y-105.592 I-3.853
G1 X155.337
G2 X147.67 Y-100.912 I-0.001 J8.619
G3 X140.003 Y-96.231 I-7.667 J-3.938
G1 X-152.47 Y-96.249
G2 X-156.324 Y-92.396 J3.853
G1 X-156.34 Y92.684
G2 X-152.488 Y96.537 I3.853
G1 X152.69 Y96.556
G2 X156.543 Y92.703 J-3.853
G1 X156.56 Y-92.377
G2 X152.708 Y-96.23 I-3.853
G1 X140.003 Y-96.231
G2 X132.98 Y-91.55 J7.607
G3 X125.958 Y-86.869 I-7.022 J-2.926
G1 X-143.109 Y-86.886
G2 X-146.962 Y-83.033 J3.853
G1 X-146.977 Y83.322
G2 X-143.124 Y87.175 I3.853
G1 X143.328 Y87.193
G2 X147.182 Y83.34 J-3.853
G1 X147.197 Y-83.015
G2 X143.344 Y-86.868 I-3.853
G1 X125.958 Y-86.869
G2 X118.936 Y-82.188 J7.607
G3 X111.914 Y-77.507 I-7.022 J-2.926
G1 X-133.747 Y-77.523
G2 X-137.6 Y-73.67 J3.853
G1 X-137.614 Y73.96
G2 X-133.761 Y77.813 I3.853
G1 X133.967 Y77.83
G2 X137.82 Y73.977 J-3.853
G1 X137.833 Y-73.653
G2 X133.981 Y-77.506 I-3.853
G1 X111.914 Y-77.507
G2 X104.892 Y-72.827 J7.607
G3 X97.869 Y-68.146 I-7.022 J-2.926
G1 X-124.385 Y-68.16
G2 X-128.238 Y-64.307 J3.853
G1 X-128.25 Y64.598
G2 X-124.398 Y68.451 I3.853
G1 X124.605 Y68.467
G2 X128.458 Y64.614 J-3.853
G1 X128.47 Y-64.291
G2 X124.617 Y-68.144 I-3.853
G1 X97.869 Y-68.146
G2 X90.847 Y-63.465 J7.607
G3 X83.825 Y-58.784 I-7.022 J-2.926
G1 X-115.023 Y-58.797
G2 X-118.877 Y-54.944 J3.853
G1 X-118.887 Y55.236
G2 X-115.034 Y59.089 I3.853
G1 X115.243 Y59.104
G2 X119.097 Y55.251 J-3.853
G1 X119.106 Y-54.929
G2 X115.254 Y-58.782 I-3.853
G1 X83.825 Y-58.784
G2 X76.803 Y-54.103 J7.607
G3 X69.78 Y-49.422 I-7.022 J-2.926
G1 X-105.662 Y-49.433
G2 X-109.515 Y-45.581 J3.853
G1 X-109.523 Y45.874
G2 X-105.671 Y49.727 I3.853
G1 X105.881 Y49.74
G2 X109.735 Y45.888 J-3.853
G1 X109.743 Y-45.567
G2 X105.891 Y-49.42 I-3.853
G1 X69.78 Y-49.422
G2 X62.758 Y-44.742 J7.607
G3 X55.736 Y-40.061 I-7.022 J-2.926
G1 X-96.3 Y-40.07
G2 X-100.153 Y-36.217 J3.853
G1 X-100.16 Y36.512
G2 X-96.307 Y40.365 I3.853
G1 X96.52 Y40.377
G2 X100.373 Y36.524 J-3.853
G1 X100.38 Y-36.205
G2 X96.527 Y-40.058 I-3.853
G1 X55.736 Y-40.061
G2 X48.714 Y-35.38 J7.607
G3 X41.692 Y-30.699 I-7.022 J-2.926
G1 X-86.938 Y-30.707
G2 X-90.792 Y-26.854 J3.853
G1 X-90.797 Y27.15
G2 X-86.944 Y31.003 I3.853
G1 X87.158 Y31.014
G2 X91.011 Y27.161 J-3.853
G1 X91.016 Y-26.843
G2 X87.164 Y-30.696 I-3.853
G1 X41.692 Y-30.699
G2 X34.669 Y-26.018 J7.607
G3 X27.647 Y-21.337 I-7.022 J-2.926
G1 X-77.577 Y-21.344
G2 X-81.43 Y-17.491 J3.853
G1 X-81.433 Y17.788
G2 X-77.58 Y21.641 I3.853
G1 X77.796 Y21.651
G2 X81.65 Y17.798 J-3.853
G1 X81.653 Y-17.481
G2 X77.8 Y-21.334 I-3.853
G1 X27.647 Y-21.337
G2 X20.625 Y-16.657 J7.607
G3 X13.603 Y-11.976 I-7.022 J-2.926
G1 X-68.215 Y-11.981
G2 X-72.068 Y-8.128 J3.853
G1 X-72.07 Y8.426
G2 X-68.217 Y12.279 I3.853
G1 X68.435 Y12.288
G2 X72.288 Y8.435 J-3.853
G1 X72.289 Y-8.119
G2 X68.437 Y-11.972 I-3.853
G1 X13.603 Y-11.976
G2 X6.581 Y-7.295 J7.607
G3 X-0.442 Y-2.614 I-7.022 J-2.926
G1 X-60.592 Y-2.618
G2 X-62.706 Y-0.504 J2.114
G1 Y0.803
G2 X-60.593 Y2.917 I2.114
G1 X60.812 Y2.925
G2 X62.926 Y0.811 J-2.114
G1 Y-0.496
G2 X60.812 Y-2.61 I-2.114
G1 X-0.442 Y-2.614
G2 X-1.051 Y-2.459 Z-0.33 J1.27
X-1.409 Y-2.167 Z0.135 I0.609 J1.115
G1 X-1.51 Y-2.03 Z0.77
G0 Z11
X71.668 Y4.999
Z6.269
G1 X71.83 Y5.018 Z5.647 F6000
G3 X72.27 Y5.093 Z5.184 I-0.792 J5.98
X72.866 Y5.249 Z5 I-1.232 J5.905
X69.211 Y16.747 Z4.338 I-1.828 J5.749
X72.866 Y5.249 Z3.676 I1.828 J-5.749
X69.211 Y16.747 Z3.015 I-1.828 J5.749
X72.866 Y5.249 Z2.353 I1.828 J-5.749
X69.211 Y16.747 Z1.691 I-1.828 J5.749
X72.866 Y5.249 Z1.029 I1.828 J-5.749
X69.211 Y16.747 Z0.367 I-1.828 J5.749
X72.866 Y5.249 Z-0.294 I1.828 J-5.749
X69.211 Y16.747 Z-0.956 I-1.828 J5.749
X72.866 Y5.249 Z-1.618 I1.828 J-5.749
X69.211 Y16.747 Z-2.28 I-1.828 J5.749
X72.866 Y5.249 Z-2.942 I1.828 J-5.749
X69.211 Y16.747 Z-3.603 I-1.828 J5.749
X72.866 Y5.249 Z-4.265 I1.828 J-5.749
X69.211 Y16.747 Z-4.927 I-1.828 J5.749
X72.866 Y5.249 Z-5.589 I1.828 J-5.749
X69.211 Y16.747 Z-6.251 I-1.828 J5.749
X72.866 Y5.249 Z-6.913 I1.828 J-5.749
X69.211 Y16.747 Z-7.574 I-1.828 J5.749
X72.866 Y5.249 Z-8.236 I1.828 J-5.749
X69.211 Y16.747 Z-8.898 I-1.828 J5.749
X72.866 Y5.249 Z-9.56 I1.828 J-5.749
X69.211 Y16.747 Z-10.222 I-1.828 J5.749
X65.016 Y10.643 Z-10.5 I1.828 J-5.749
X65.358 Y6.143 I132.488 J7.8
G2 X65.686 Y-0.914 I-75.888 J-7.064
X65.397 Y-6.929 I-62.672 J-0.006
G3 X64.906 Y-12.931 I209.573 J-20.19
X68.421 Y-16.693 I3.516 J-0.237
G1 X73.158 Y-16.692
G3 X77.01 Y-12.839 J3.853
G1 X77.008 Y13.156
G3 X73.154 Y17.008 I-3.853
G1 X68.558
G3 X64.891 Y13.192 J-3.671
X65.016 Y10.643 I132.614 J5.251
G2 X60.722 Y3.494 I-7.376 J-0.434
G3 X56.159 Y-3.488 I3.266 J-7.116
G2 X54.824 Y-22.135 I-172.088 J2.954
G3 X58.094 Y-25.844 I3.27 J-0.414
G1 X82.309 Y-25.842
G3 X86.162 Y-21.989 J3.853
G1 X86.158 Y22.307
G3 X82.304 Y26.16 I-3.853
G1 X58.635 Y26.158
G3 X55.195 Y22.413 J-3.453
G2 X56.184 Y0.129 I-274.536 J-23.345
X56.159 Y-3.488 I-172.112 J-0.663
X51.422 Y-10.174 I-7.262 J0.125
G3 X46.404 Y-16.651 I2.695 J-7.271
G2 X44.257 Y-31.205 I-166.38 J17.105
G3 X47.271 Y-34.856 I3.014 J-0.581
G1 X91.321 Y-34.853
G3 X95.174 Y-31 J3.853
G1 X95.168 Y31.319
G3 X91.315 Y35.171 I-3.853
G1 X48.257 Y35.169
G3 X45.073 Y31.479 J-3.219
X46.365 Y22.992 I975.188 J144.105
G2 X47.2 Y14.448 I-73.259 J-11.478
X47.043 Y-8.464 I-246.464 J-9.76
X46.404 Y-16.651 I-167.019 J8.918
X41.164 Y-22.878 I-7.199 J0.74
G3 X35.668 Y-28.88 I2.089 J-7.43
G2 X33.143 Y-40.119 I-162.21 J30.54
G3 X35.914 Y-43.708 I2.771 J-0.725
G1 X100.173 Y-43.704
G3 X104.026 Y-39.851 J3.853
G1 X104.019 Y40.171
G3 X100.165 Y44.023 I-3.853
G1 X37.444 Y44.019
G3 X34.498 Y40.386 J-3.011
G2 X38.51 Y0.055 I-182.481 J-38.518
X35.668 Y-28.88 I-165.052 J1.605
X30.079 Y-34.479 I-6.901 J1.299
G3 X24.248 Y-39.825 I1.405 J-7.387
G2 X21.388 Y-48.888 I-148.694 J41.942
G3 X23.88 Y-52.4 I2.492 J-0.872
G1 X108.865 Y-52.395
G3 X112.718 Y-48.541 J3.853
G1 X112.709 Y48.862
G3 X108.856 Y52.715 I-3.853
G1 X26.009 Y52.71
G3 X23.34 Y49.149 J-2.781
G2 X30.035 Y-0.022 I-160.244 J-46.859
X24.248 Y-39.825 I-154.481 J2.14
X18.397 Y-44.732 I-6.528 J1.841
G3 X12.331 Y-49.373 I0.726 J-7.233
G2 X10.679 Y-53.509 I-135.427 J51.699
X9.794 Y-55.457 I-31.599 J13.189
G3 X8.908 Y-57.404 I30.714 J-15.137
X11.227 Y-60.884 I2.318 J-0.968
G1 X117.349 Y-60.877
G3 X121.202 Y-57.024 J3.853
G1 X121.192 Y57.346
G3 X117.338 Y61.199 I-3.853
G1 X13.856 Y61.193
G3 X11.477 Y57.715 J-2.553
G2 X21.863 Y2.025 I-142.402 J-55.373
X12.331 Y-49.373 I-144.959 J0.301
X6.209 Y-53.594 I-6.129 J2.34
G3 X-0.049 Y-57.61 I0.007 J-6.895
G2 X-3.992 Y-65.882 I-295.015 J135.542
G3 X-1.886 Y-69.271 I2.106 J-1.041
G1 X125.737 Y-69.263
G3 X129.589 Y-65.41 J3.853
G1 X129.577 Y65.733
G3 X125.724 Y69.586 I-3.853
G1 X0.576 Y69.578
G3 X-1.498 Y66.192 J-2.329
G2 X8.54 Y40.415 I-123.363 J-62.885
X12.823 Y13.086 I-115.264 J-32.063
X12.686 Y-9.669 I-249.426 J-9.877
X9.349 Y-32.178 I-119.087 J6.152
X3.59 Y-49.391 I-110.056 J27.251
X-0.049 Y-57.61 I-298.655 J127.322
X-6.159 Y-61.298 I-5.768 J2.65
G3 X-12.406 Y-64.749 I-0.363 J-6.723
G2 X-18.064 Y-74.156 I-141.324 J78.601
G3 X-16.287 Y-77.427 I1.777 J-1.153
G1 X133.892 Y-77.418
G3 X137.745 Y-73.564 J3.853
G1 X137.731 Y73.889
G3 X133.878 Y77.741 I-3.853
G1 X-12.996 Y77.732
G3 X-14.969 Y74.389 J-2.254
G2 X-4.117 Y52.423 I-236.552 J-130.54
X2.913 Y28.953 I-91.772 J-40.275
X5.225 Y-0.709 I-161.961 J-27.547
X1.433 Y-30.218 I-129.712 J1.67
X-6.484 Y-53 I-127.789 J31.642
X-12.406 Y-64.749 I-147.246 J66.852
X-18.792 Y-67.961 I-5.555 J3.09
G3 X-25.313 Y-70.89 I-0.889 J-6.745
G2 X-33.806 Y-82.122 I-112.33 J76.113
G3 X-32.355 Y-85.258 I1.451 J-1.232
G1 X141.723 Y-85.247
G3 X145.575 Y-81.394 J3.853
G1 X145.56 Y81.719
G3 X141.707 Y85.571 I-3.853
G1 X-27.687 Y85.561
G3 X-29.317 Y82.349 J-2.019
G2 X-5.438 Y30.076 I-115.039 J-84.141
X-5.933 Y-27.39 I-120.728 J-27.696
X-25.313 Y-70.89 I-131.71 J32.613
X-31.281 Y-73.331 I-4.818 J3.265
G3 X-37.343 Y-75.527 I-1.225 J-6.081
G2 X-38.117 Y-76.479 I-77.303 J62.092
X-44.772 Y-83.343 I-45.689 J37.638
G3 X-51.9 Y-89.714 I338.551 J-385.975
X-50.733 Y-92.729 I1.167 J-1.282
G1 X149.193 Y-92.716
G3 X153.046 Y-88.863 J3.853
G1 X153.03 Y89.189
G3 X149.177 Y93.042 I-3.853
G1 X-44.317 Y93.03
G3 X-45.597 Y89.974 J-1.796
G2 X-23.83 Y60.218 I-90.374 J-88.947
X-11.986 Y25.305 I-103.223 J-54.484
X-10.424 Y-8.499 I-136.743 J-23.258
X-18.328 Y-41.403 I-106.125 J8.092
X-26.932 Y-59.668 I-207.842 J86.75
X-37.343 Y-75.527 I-87.714 J46.233
X-43.759 Y-77.504 I-4.667 J3.749
G3 X-50.276 Y-79.118 I-1.91 J-6.252
G2 X-53.077 Y-81.782 I-62.874 J63.304
X-62.575 Y-89.864 I-124.984 J137.25
X-72.719 Y-97.12 I-76.727 J96.556
G3 X-71.895 Y-99.93 I0.824 J-1.285
G1 X156.394 Y-99.916
G3 X160.247 Y-96.063 J3.853
G1 X160.229 Y96.39
G3 X156.376 Y100.243 I-3.853
G1 X-64.367 Y100.229
G3 X-65.36 Y97.307 J-1.63
G2 X-55.354 Y89.5 I-525.857 J-684.279
X-46.147 Y80.764 I-44.203 J-55.801
X-19.084 Y24.097 I-86.205 J-75.966
X-17.577 Y-7.684 I-129.824 J-22.081
X-24.972 Y-38.629 I-99.068 J7.317
X-36.659 Y-61.746 I-164.568 J68.688
X-50.276 Y-79.118 I-76.49 J45.932
X-56.247 Y-80.209 I-3.782 J3.807
G3 X-62.249 Y-81.119 I-2.293 J-5.129
G2 X-68.062 Y-86.12 I-238.354 J271.155
X-79.526 Y-94.163 I-51.277 J60.895
X-88.386 Y-98.966 I-93.56 J161.999
G3 X-97.245 Y-103.769 I84.7 J-166.802
X-96.502 Y-106.543 I0.743 J-1.287
G1 X163.005 Y-106.526
G3 X166.858 Y-102.673 J3.853
G1 X166.839 Y103.001
G3 X162.986 Y106.854 I-3.853
G1 X-88.19 Y106.838
G3 X-88.785 Y104.175 J-1.398
G2 X-68.52 Y92.218 I-53.406 J-113.667
X-51.107 Y76.393 I-62.418 J-86.174
X-25.601 Y22.989 I-81.245 J-71.596
X-24.146 Y-6.935 I-123.496 J-21.005
X-31.073 Y-36.083 I-92.599 J6.61
X-42.063 Y-57.939 I-160.147 J66.843
X-57.528 Y-76.894 I-71.379 J42.447
X-62.249 Y-81.119 I-243.076 J266.93
X-67.622 Y-81.786 I-3.176 J3.614
G3 X-73.018 Y-82.225 I-2.344 J-4.569
G2 X-84.877 Y-89.858 I-65.128 J88.147
G1 X-120.345 Y-109.961
G3 X-119.602 Y-112.735 I0.743 J-1.287
G1 X169.197 Y-112.717
G3 X173.049 Y-108.863 J3.853
G1 X173.029 Y109.192
G3 X169.176 Y113.045 I-3.853
G1 X-169.721 Y113.023
G3 X-169.723 Y108.426 J-2.299
X-143.471 Y109.121 I0.453 J479.054
G2 X-117.301 Y106.935 I5.169 J-95.848
X-95.127 Y100.366 I-37.556 J-167.495
X-74.89 Y89.171 I-26.941 J-72.585
X-57.789 Y74.096 I-103.27 J-134.382
X-44.37 Y55.667 I-53.613 J-53.139
X-35.048 Y34.274 I-155.11 J-80.317
X-30.599 Y11.367 I-72.419 J-25.951
X-30.546 Y-5.262 I-228.362 J-9.043
X-32.833 Y-21.733 I-79.465 J2.639
X-40.839 Y-43.908 I-110.492 J27.359
X-53.555 Y-63.762 I-89.082 J43.056
X-73.018 Y-82.225 I-84.591 J69.685
X-79.278 Y-82.548 I-3.374 J4.567
G3 X-85.543 Y-82.75 I-2.973 J-5.039
G2 X-100.152 Y-91.681 I-98.634 J144.934
G1 X-118.422 Y-101.8
X-136.569 Y-112.137
G2 X-141.74 Y-114.664 I-20.849 J36.099
X-147.088 Y-116.792 I-155.543 J383.225
G3 X-146.611 Y-119.325 I0.476 J-1.222
G1 X175.863 Y-119.305
G3 X179.638 Y-115.529 J3.776
G1 X179.617 Y115.858
G3 X175.841 Y119.634 I-3.776
G1 X-175.643 Y119.612
G3 X-179.419 Y115.836 J-3.776
G1 X-179.418 Y105.465
G3 X-175.725 Y101.832 I3.633
G1 X-153.212 Y101.976
X-130.7 Y101.678
G2 X-87.335 Y89.561 I-2.102 J-91.177
X-55.086 Y60.698 I-52.208 J-90.781
X-38.21 Y20.844 I-75.879 J-55.63
X-36.853 Y-5.487 I-111.344 J-18.938
X-42.876 Y-31.157 I-80.116 J5.256
X-52.519 Y-50.572 I-152.648 J63.713
X-66.139 Y-67.437 I-61.57 J35.791
X-85.543 Y-82.75 I-118.037 J129.621
X-90.938 Y-82.784 I-2.723 J4.002
G3 X-96.332 Y-82.692 I-2.77 J-4.184
G2 X-103.63 Y-86.931 I-91.133 J148.487
G1 X-121.605 Y-96.925
X-139.47 Y-107.114
G2 X-156.782 Y-114.145 I-33.982 J58.84
X-175.319 Y-116.491 I-18.833 J74.419
X-178.474 Y-116.413 I-0.213 J55.282
G3 X-181.627 Y-116.307 I-4.271 J-80.161
X-185.382 Y-120.011 I-0.052 J-3.703
G1 Y-121.459
G3 X-181.529 Y-125.312 I3.853
G1 X181.771 Y-125.289
G3 X185.624 Y-121.436 J3.853
G1 X185.602 Y121.766
G3 X181.748 Y125.619 I-3.853
G1 X-181.551 Y125.596
G3 X-185.404 Y121.743 J-3.853
G1 X-185.402 Y99.693
G3 X-181.558 Y95.839 I3.855
G1 X-135.311 Y96.363
G2 X-96.766 Y87.717 I-0.086 J-90.628
X-65.185 Y63.987 I-41.548 J-88.173
X-44.1 Y19.843 I-67.167 J-59.19
X-42.789 Y-4.811 I-105.724 J-17.982
X-48.389 Y-28.855 I-74.305 J4.632
X-57.403 Y-47.131 I-149.846 J62.543
X-70.162 Y-63.02 I-57.032 J32.728
X-96.332 Y-82.692 I-117.304 J128.815
X-104.673 Y-82.291 I-3.877 J6.316
G3 X-113.002 Y-81.687 I-4.632 J-6.137
G1 X-144.059 Y-99.168
G2 X-166.876 Y-106.826 I-30.303 J52.469
X-190.938 Y-106.256 I-10.114 J81.24
G3 X-194.559 Y-109.305 I-0.527 J-3.048
G1 X-194.557 Y-130.635
G3 X-190.703 Y-134.488 I3.853
G1 X190.948 Y-134.464
G3 X194.8 Y-130.611 J3.853
G1 X194.777 Y130.942
G3 X190.923 Y134.795 I-3.853
G1 X-190.728 Y134.771
G3 X-194.58 Y130.918 J-3.853
G1 X-194.577 Y90.519
G3 X-190.723 Y86.665 I3.854
G1 X-171.249 Y86.826
X-151.781 Y87.317
G2 X-113.003 Y83.682 I5.168 J-153.532
X-90.497 Y74.041 I-14.625 J-65.228
X-72.069 Y57.921 I-52.546 J-78.665
X-53.145 Y18.304 I-60.283 J-53.123
X-51.906 Y-3.772 I-97.191 J-16.531
X-56.857 Y-25.321 I-65.41 J3.685
X-64.904 Y-41.847 I-146.954 J61.336
X-76.339 Y-56.236 I-50.125 J28.097
X-109.045 Y-79.523 I-112.993 J124.082
G1 X-113.002 Y-81.687
G2 X-121.186 Y-81.059 I-3.611 J6.584
G3 X-129.375 Y-80.522 I-4.497 J-5.857
G1 X-148.462 Y-91.545
G2 X-173.829 Y-98.931 I-27.749 J48.048
X-199.917 Y-94.755 I-2.832 J65.886
G3 X-203.363 Y-97.14 I-0.899 J-2.384
G1 X-203.36 Y-139.44
G3 X-199.506 Y-143.292 I3.853
G1 X199.752 Y-143.267
G3 X203.605 Y-139.414 J3.853
G1 X203.579 Y139.747
G3 X199.726 Y143.599 I-3.853
G1 X-199.532 Y143.574
G3 X-203.385 Y139.721 J-3.853
G1 X-203.38 Y81.716
G3 X-199.526 Y77.863 I3.854
X-157.151 Y78.81 I0.152 J941.046
G2 X-114.929 Y75.092 I7.185 J-159.98
X-94.982 Y66.465 I-12.746 J-56.847
X-78.674 Y52.101 I-48.399 J-71.386
X-61.824 Y16.828 I-53.678 J-47.303
X-60.653 Y-2.775 I-89.168 J-15.166
X-64.981 Y-21.93 I-56.92 J2.796
X-72.1 Y-36.776 I-146.86 J61.297
X-82.267 Y-49.727 I-43.588 J23.75
X-89.745 Y-56.456 I-571.322 J627.39
X-97.902 Y-62.345 I-32.976 J37.086
G1 X-129.375 Y-80.522
G2 X-136.818 Y-80.043 I-3.362 J5.821
G3 X-144.26 Y-79.564 I-4.08 J-5.342
G1 X-152.6 Y-84.38
G2 X-178.067 Y-91.081 I-25.008 J43.301
X-203.471 Y-84.145 I0.475 J51.732
X-205.881 Y-82.65 I22.709 J39.308
G3 X-208.291 Y-81.155 I-25.119 J-37.813
X-211.638 Y-83.088 I-1.116 J-1.932
G1 X-211.633 Y-147.714
G3 X-207.779 Y-151.567 I3.853
G1 X208.026 Y-151.54
G3 X211.879 Y-147.687 J3.853
G1 X211.852 Y148.021
G3 X207.999 Y151.874 I-3.853
G1 X-207.807 Y151.848
G3 X-211.659 Y147.994 J-3.853
G1 X-211.653 Y73.444
G3 X-207.799 Y69.59 I3.854
G1 X-135.335 Y70.11
G2 X-107.583 Y63.797 I-0.061 J-64.421
X-84.881 Y46.63 I-30.772 J-64.289
X-69.981 Y15.441 I-47.471 J-41.833
X-68.873 Y-1.838 I-81.859 J-13.923
X-72.616 Y-18.743 I-48.994 J1.982
X-78.864 Y-32.011 I-151.444 J63.21
X-87.838 Y-43.61 I-37.543 J19.775
G1 X-94.456 Y-49.636
G2 X-102.04 Y-55.18 I-29.486 J32.379
G1 X-144.26 Y-79.564
G2 X-151.554 Y-79.174 I-3.348 J5.796
G3 X-158.832 Y-78.562 I-4.143 J-5.676
G2 X-172.549 Y-82.594 I-18.152 J36.404
X-189.251 Y-81.476 I-5.21 J47.491
X-203.315 Y-75.27 I10.765 J43.434
G3 X-216.372 Y-67.156 I-132.657 J-198.91
X-219.719 Y-69.088 I-1.116 J-1.932
G1 X-219.711 Y-155.794
G3 X-215.858 Y-159.646 I3.853
G1 X216.107 Y-159.619
G3 X219.959 Y-155.766 J3.853
G1 X219.931 Y156.101
G3 X216.078 Y159.953 I-3.853
G1 X-215.887 Y159.926
G3 X-219.739 Y156.073 J-3.853
G1 X-219.731 Y65.366
G3 X-215.878 Y61.512 I3.854
G1 X-135.343 Y62.031
G2 X-110.912 Y56.435 I-0.053 J-56.364
X-90.943 Y41.289 I-27.463 J-56.945
X-77.946 Y14.086 I-41.409 J-36.491
X-76.901 Y-0.924 I-75.08 J-12.77
X-80.072 Y-15.631 I-41.323 J1.216
X-85.469 Y-27.358 I-165.921 J69.253
X-93.277 Y-37.636 I-31.757 J16.02
G3 X-99.395 Y-43.254 I669.408 J-735.101
G2 X-106.08 Y-48.184 I-25.329 J27.352
G1 X-156.64 Y-77.384
G2 X-158.832 Y-78.562 I-20.344 J35.226
X-166.612 Y-77.298 I-3.011 J6.039
G3 X-174.027 Y-74.628 I-6.55 J-6.56
G2 X-187.307 Y-73.634 I-3.712 J39.603
X-191.55 Y-72.342 I10.162 J41.004
X-195.57 Y-70.47 I8.608 J23.732
X-210.011 Y-61.813 I261.185 J452.098
G3 X-224.452 Y-53.157 I-275.626 J-443.442
X-227.8 Y-55.089 I-1.116 J-1.932
G1 X-227.79 Y-163.874
G3 X-223.937 Y-167.726 I3.853
G1 X224.187 Y-167.698
G3 X228.039 Y-163.845 J3.853
G1 X228.01 Y164.181
G3 X224.156 Y168.033 I-3.853
G1 X-223.967 Y168.005
G3 X-227.82 Y164.152 J-3.853
G1 X-227.81 Y56.376
G3 X-224.237 Y53.224 I3.178
G1 X-222.562 Y53.433
G2 X-220.867 Y53.539 I1.693 J-13.521
G1 X-135.351 Y53.951
G2 X-114.241 Y49.073 I-0.046 J-48.313
X-97.005 Y35.947 I-24.161 J-49.608
X-85.911 Y12.731 I-35.348 J-31.149
X-84.928 Y-0.009 I-68.949 J-11.727
X-87.528 Y-12.519 I-33.745 J0.489
X-92.074 Y-22.704 I-211.398 J88.234
X-98.717 Y-31.662 I-26.117 J12.426
G3 X-104.163 Y-36.731 I229.2 J-251.693
G2 X-110.121 Y-41.187 I-21.709 J22.817
G1 X-160.681 Y-70.387
G2 X-173.679 Y-74.594 I-16.331 J28.277
X-174.027 Y-74.628 I-4.06 J39.568
X-180.828 Y-70.624 I-0.629 J6.71
G3 X-186.759 Y-65.416 I-8.538 J-3.742
G2 X-188.528 Y-64.85 I9.95 J34.143
X-191.529 Y-63.474 I5.792 J16.597
G1 X-212.031 Y-51.316
X-232.533 Y-39.158
G3 X-235.88 Y-41.09 I-1.116 J-1.932
G1 X-235.869 Y-171.953
G3 X-232.015 Y-175.806 I3.853
G1 X232.267 Y-175.777
G3 X236.119 Y-171.924 J3.853
G1 X236.088 Y172.26
G3 X232.235 Y176.113 I-3.853
G1 X-232.047 Y176.084
G3 X-235.9 Y172.231 J-3.853
G1 X-235.888 Y46.217
G3 X-232.269 Y43.306 I2.98
X-226.634 Y44.819 I-13.469 J61.403
G2 X-220.868 Y45.716 I5.763 J-18.066
G1 X-180.357 Y45.297
G3 X-175.987 Y45.308 I2.113 J28.818
G2 X-148.942 Y46.356 I26.796 J-341.927
X-122.042 Y43.368 I-0.09 J-123.359
X-111.544 Y38.488 I-5.949 J-26.531
X-103.066 Y30.605 I-35.275 J-46.439
X-93.876 Y11.376 I-29.286 J-25.808
X-92.955 Y0.906 I-64.199 J-10.919
X-94.984 Y-9.407 I-26.304 J-0.181
X-98.678 Y-18.051 I-511.942 J213.676
X-104.157 Y-25.689 I-20.666 J9.04
G3 X-108.931 Y-30.209 I113.753 J-124.917
G2 X-114.162 Y-34.191 I-18.218 J18.506
G1 X-164.722 Y-63.391
G2 X-174.81 Y-66.594 I-12.333 J21.354
X-185.364 Y-65.792 I-2.897 J31.698
X-186.759 Y-65.416 I8.555 J34.519
X-191.379 Y-58.945 I1.798 J6.169
G3 X-195.166 Y-51.954 I-7.68 J0.361
G1 X-238.182 Y-26.69
G2 X-239.609 Y-25.616 I3.693 J6.393
G3 X-240.91 Y-24.394 I-50.423 J-52.385
X-243.962 Y-25.737 I-1.231 J-1.343
G1 X-243.949 Y-178.896
G3 X-238.957 Y-183.887 I4.991
G1 X240.569 Y-183.325
G3 X242.362 Y-182.652 I-0.236 J3.352
X243.477 Y-181.096 I-1.952 J2.577
X243.616 Y-180.481 I-2.995 J0.997
X243.669 Y-179.852 I-8.473 J1.032
G1 X244.168 Y179.203
G3 X239.177 Y184.194 I-4.991
G1 X-240.349 Y183.632
G3 X-242.142 Y182.959 I0.236 J-3.352
X-243.257 Y181.403 I1.952 J-2.577
X-243.396 Y180.788 I2.995 J-0.997
X-243.449 Y180.159 I8.473 J-1.032
G1 X-243.968 Y31.595
G3 X-240.819 Y30.035 I1.961
X-236.692 Y33.214 I-286.49 J376.144
G2 X-231.977 Y35.428 I7.239 J-9.29
X-206.44 Y38.287 I26.409 J-120.398
X-180.765 Y37.223 I1.875 J-265.043
G3 X-175.538 Y37.236 I2.543 J28.203
G1 X-135.366 Y37.78
G2 X-120.904 Y34.339 I-0.031 J-32.235
X-109.137 Y25.256 I-17.595 J-34.958
X-103.022 Y13.062 I-20.093 J-17.707
X-101.342 Y-0.476 I-79.68 J-16.76
X-101.579 Y-3.444 I-12.487 J-0.494
X-102.452 Y-6.291 I-14.901 J3.009
G3 X-105.293 Y-13.391 I239.814 J-100.094
G2 X-109.605 Y-19.706 I-15.458 J5.924
G3 X-113.706 Y-23.676 I62.821 J-68.986
G2 X-118.208 Y-27.184 I-14.874 J14.451
G1 X-168.768 Y-56.384
G2 X-175.942 Y-58.582 I-8.358 J14.472
X-183.417 Y-57.938 I-1.701 J23.944
X-185.501 Y-57.346 I7.675 J30.969
X-187.481 Y-56.468 I3.116 J9.699
G1 X-195.166 Y-51.954
G2 X-198.342 Y-45.49 I3.313 J5.641
G3 X-201.519 Y-39.025 I-6.414 J0.861
G1 X-234.35 Y-20.057
G2 X-234.943 Y-19.622 I1.692 J2.929
G1 X-241.66 Y-13.468
G2 X-242.085 Y-12.998 I2.285 J2.494
G1 X-242.591 Y-12.32
G2 X-243.002 Y-11.6 I2.71 J2.024
G1 X-246.452 Y-3.343
G2 X-246.595 Y-2.927 I3.121 J1.304
G1 X-246.897 Y-1.818
G2 X-247.013 Y-0.793 I3.263 J0.888
G1 X-246.631 Y8.596
G2 X-246.507 Y9.376 I3.379 J-0.137
G1 X-246.202 Y10.46
G2 X-245.942 Y11.114 I3.255 J-0.918
G1 X-241.627 Y19.336
G2 X-241.076 Y20.102 I2.995 J-1.572
G1 X-240.387 Y20.822
G2 X-239.993 Y21.174 I2.444 J-2.338
G1 X-232.702 Y26.728
G2 X-231.815 Y27.213 I2.049 J-2.691
G1 X-230.728 Y27.611
G2 X-230.29 Y27.739 I1.163 J-3.176
G1 X-221.596 Y29.646
G2 X-220.871 Y29.724 I0.725 J-3.304
G1 X-181.746 Y29.718
G2 X-180.777 Y29.576 I-0.001 J-3.382
G1 X-179.691 Y29.251
G2 X-178.806 Y28.84 I-0.969 J-3.24
G1 X-178.233 Y28.464
G2 X-177.821 Y28.707 I1.921 J-2.784
G1 X-176.735 Y29.249
G2 X-175.832 Y29.55 I1.509 J-3.027
G1 X-175.107 Y29.682
G2 X-174.498 Y29.736 I0.606 J-3.327
G1 X-135.374 Y29.699
G2 X-134.637 Y29.617 I-0.003 J-3.382
G1 X-125.58 Y27.587
G2 X-124.634 Y27.218 I-0.74 J-3.3
G1 X-123.547 Y26.593
G2 X-123.173 Y26.343 I-1.686 J-2.932
G1 X-116.288 Y21.052
G2 X-115.811 Y20.607 I-2.061 J-2.682
G1 X-115.2 Y19.913
G2 X-114.734 Y19.232 I-2.537 J-2.236
G1 X-110.335 Y10.736
G2 X-110.004 Y9.748 I-3.003 J-1.555
G1 X-109.82 Y8.665
G2 X-109.774 Y8.231 I-3.334 J-0.567
G1 X-109.417 Y-0.796
G2 X-109.513 Y-1.743 I-3.379 J-0.134
G1 X-109.748 Y-2.688
G2 X-109.909 Y-3.178 I-3.283 J0.813
G1 X-113.415 Y-11.578
G2 X-113.926 Y-12.426 I-3.121 J1.303
G1 X-114.713 Y-13.381
G2 X-115.046 Y-13.731 I-2.61 J2.15
G1 X-121.664 Y-19.758
G2 X-122.25 Y-20.186 I-2.277 J2.501
G1 X-172.81 Y-49.386
G2 X-173.508 Y-49.69 I-1.691 J2.929
G1 X-174.595 Y-50.024
G2 X-175.575 Y-50.173 I-0.994 J3.233
G1 X-180.647 Y-50.193
G2 X-181.473 Y-50.094 I-0.013 J3.382
G1 X-182.56 Y-49.824
G2 X-183.438 Y-49.47 I0.814 J3.283
G1 X-201.519 Y-39.025
G3 X-202.124 Y-38.855 Z-10.33 I-0.635 J-1.1
X-202.58 Y-38.928 Z-9.865 I-0.03 J-1.27
G1 X-202.736 Y-38.996 Z-9.23
G0 Z11
X71.668 Y4.999
Z1.269
G1 X71.83 Y5.018 Z0.647 F6000
G3 X72.27 Y5.093 Z0.184 I-0.792 J5.98
X72.866 Y5.249 Z0 I-1.232 J5.905
X69.211 Y16.747 Z-0.662 I-1.828 J5.749
X72.866 Y5.249 Z-1.324 I1.828 J-5.749
X69.211 Y16.747 Z-1.985 I-1.828 J5.749
X72.866 Y5.249 Z-2.647 I1.828 J-5.749
X69.211 Y16.747 Z-3.309 I-1.828 J5.749
X72.866 Y5.249 Z-3.971 I1.828 J-5.749
X69.211 Y16.747 Z-4.633 I-1.828 J5.749
X72.866 Y5.249 Z-5.294 I1.828 J-5.749
X69.211 Y16.747 Z-5.956 I-1.828 J5.749
X72.866 Y5.249 Z-6.618 I1.828 J-5.749
X69.211 Y16.747 Z-7.28 I-1.828 J5.749
X72.866 Y5.249 Z-7.942 I1.828 J-5.749
X69.211 Y16.747 Z-8.603 I-1.828 J5.749
X72.866 Y5.249 Z-9.265 I1.828 J-5.749
X69.211 Y16.747 Z-9.927 I-1.828 J5.749
X72.866 Y5.249 Z-10.589 I1.828 J-5.749
X69.211 Y16.747 Z-11.251 I-1.828 J5.749
X72.866 Y5.249 Z-11.913 I1.828 J-5.749
X69.211 Y16.747 Z-12.574 I-1.828 J5.749
X72.866 Y5.249 Z-13.236 I1.828 J-5.749
X69.211 Y16.747 Z-13.898 I-1.828 J5.749
X72.866 Y5.249 Z-14.56 I1.828 J-5.749
X69.211 Y16.747 Z-15.222 I-1.828 J5.749
X65.016 Y10.643 Z-15.5 I1.828 J-5.749
X65.358 Y6.143 I132.488 J7.8
G2 X65.686 Y-0.914 I-75.888 J-7.064
X65.397 Y-6.929 I-62.672 J-0.006
G3 X64.906 Y-12.931 I209.573 J-20.19
X68.421 Y-16.693 I3.516 J-0.237
G1 X73.158 Y-16.692
G3 X77.01 Y-12.839 J3.853
G1 X77.008 Y13.156
G3 X73.154 Y17.008 I-3.853
G1 X68.558
G3 X64.891 Y13.192 J-3.671
X65.016 Y10.643 I132.614 J5.251
G2 X60.722 Y3.494 I-7.376 J-0.434
G3 X56.159 Y-3.488 I3.266 J-7.116
G2 X54.824 Y-22.135 I-172.088 J2.954
G3 X58.094 Y-25.844 I3.27 J-0.414
G1 X82.309 Y-25.842
G3 X86.162 Y-21.989 J3.853
G1 X86.158 Y22.307
G3 X82.304 Y26.16 I-3.853
G1 X58.635 Y26.158
G3 X55.195 Y22.413 J-3.453
G2 X56.184 Y0.129 I-274.536 J-23.345
X56.159 Y-3.488 I-172.112 J-0.663
X51.422 Y-10.174 I-7.262 J0.125
G3 X46.404 Y-16.651 I2.695 J-7.271
G2 X44.257 Y-31.205 I-166.38 J17.105
G3 X47.271 Y-34.856 I3.014 J-0.581
G1 X91.321 Y-34.853
G3 X95.174 Y-31 J3.853
G1 X95.168 Y31.319
G3 X91.315 Y35.171 I-3.853
G1 X48.257 Y35.169
G3 X45.073 Y31.479 J-3.219
X46.365 Y22.992 I975.188 J144.105
G2 X47.2 Y14.448 I-73.259 J-11.478
X47.043 Y-8.464 I-246.464 J-9.76
X46.404 Y-16.651 I-167.019 J8.918
X41.164 Y-22.878 I-7.199 J0.74
G3 X35.668 Y-28.88 I2.089 J-7.43
G2 X33.143 Y-40.119 I-162.21 J30.54
G3 X35.914 Y-43.708 I2.771 J-0.725
G1 X100.173 Y-43.704
G3 X104.026 Y-39.851 J3.853
G1 X104.019 Y40.171
G3 X100.165 Y44.023 I-3.853
G1 X37.444 Y44.019
G3 X34.498 Y40.386 J-3.011
G2 X38.51 Y0.055 I-182.481 J-38.518
X35.668 Y-28.88 I-165.052 J1.605
X30.079 Y-34.479 I-6.901 J1.299
G3 X24.248 Y-39.825 I1.405 J-7.387
G2 X21.388 Y-48.888 I-148.694 J41.942
G3 X23.88 Y-52.4 I2.492 J-0.872
G1 X108.865 Y-52.395
G3 X112.718 Y-48.541 J3.853
G1 X112.709 Y48.862
G3 X108.856 Y52.715 I-3.853
G1 X26.009 Y52.71
G3 X23.34 Y49.149 J-2.781
G2 X30.035 Y-0.022 I-160.244 J-46.859
X24.248 Y-39.825 I-154.481 J2.14
X18.397 Y-44.732 I-6.528 J1.841
G3 X12.331 Y-49.373 I0.726 J-7.233
G2 X10.679 Y-53.509 I-135.427 J51.699
X9.794 Y-55.457 I-31.599 J13.189
G3 X8.908 Y-57.404 I30.714 J-15.137
X11.227 Y-60.884 I2.318 J-0.968
G1 X117.349 Y-60.877
G3 X121.202 Y-57.024 J3.853
G1 X121.192 Y57.346
G3 X117.338 Y61.199 I-3.853
G1 X13.856 Y61.193
G3 X11.477 Y57.715 J-2.553
G2 X21.863 Y2.025 I-142.402 J-55.373
X12.331 Y-49.373 I-144.959 J0.301
X6.209 Y-53.594 I-6.129 J2.34
G3 X-0.049 Y-57.61 I0.007 J-6.895
G2 X-3.992 Y-65.882 I-295.015 J135.542
G3 X-1.886 Y-69.271 I2.106 J-1.041
G1 X125.737 Y-69.263
G3 X129.589 Y-65.41 J3.853
G1 X129.577 Y65.733
G3 X125.724 Y69.586 I-3.853
G1 X0.576 Y69.578
G3 X-1.498 Y66.192 J-2.329
G2 X8.54 Y40.415 I-123.363 J-62.885
X12.823 Y13.086 I-115.264 J-32.063
X12.686 Y-9.669 I-249.426 J-9.877
X9.349 Y-32.178 I-119.087 J6.152
X3.59 Y-49.391 I-110.056 J27.251
X-0.049 Y-57.61 I-298.655 J127.322
X-6.159 Y-61.298 I-5.768 J2.65
G3 X-12.406 Y-64.749 I-0.363 J-6.723
G2 X-18.064 Y-74.156 I-141.324 J78.601
G3 X-16.287 Y-77.427 I1.777 J-1.153
G1 X133.892 Y-77.418
G3 X137.745 Y-73.564 J3.853
G1 X137.731 Y73.889
G3 X133.878 Y77.741 I-3.853
G1 X-12.996 Y77.732
G3 X-14.969 Y74.389 J-2.254
G2 X-4.117 Y52.423 I-236.552 J-130.54
X2.913 Y28.953 I-91.772 J-40.275
X5.225 Y-0.709 I-161.961 J-27.547
X1.433 Y-30.218 I-129.712 J1.67
X-6.484 Y-53 I-127.789 J31.642
X-12.406 Y-64.749 I-147.246 J66.852
X-18.792 Y-67.961 I-5.555 J3.09
G3 X-25.313 Y-70.89 I-0.889 J-6.745
G2 X-33.806 Y-82.122 I-112.33 J76.113
G3 X-32.355 Y-85.258 I1.451 J-1.232
G1 X141.723 Y-85.247
G3 X145.575 Y-81.394 J3.853
G1 X145.56 Y81.719
G3 X141.707 Y85.571 I-3.853
G1 X-27.687 Y85.561
G3 X-29.317 Y82.349 J-2.019
G2 X-5.438 Y30.076 I-115.039 J-84.141
X-5.933 Y-27.39 I-120.728 J-27.696
X-25.313 Y-70.89 I-131.71 J32.613
X-31.281 Y-73.331 I-4.818 J3.265
G3 X-37.343 Y-75.527 I-1.225 J-6.081
G2 X-38.117 Y-76.479 I-77.303 J62.092
X-44.772 Y-83.343 I-45.689 J37.638
G3 X-51.9 Y-89.714 I338.551 J-385.975
X-50.733 Y-92.729 I1.167 J-1.282
G1 X149.193 Y-92.716
G3 X153.046 Y-88.863 J3.853
G1 X153.03 Y89.189
G3 X149.177 Y93.042 I-3.853
G1 X-44.317 Y93.03
G3 X-45.597 Y89.974 J-1.796
G2 X-23.83 Y60.218 I-90.374 J-88.947
X-11.986 Y25.305 I-103.223 J-54.484
X-10.424 Y-8.499 I-136.743 J-23.258
X-18.328 Y-41.403 I-106.125 J8.092
X-26.932 Y-59.668 I-207.842 J86.75
X-37.343 Y-75.527 I-87.714 J46.233
X-43.759 Y-77.504 I-4.667 J3.749
G3 X-50.276 Y-79.118 I-1.91 J-6.252
G2 X-53.077 Y-81.782 I-62.874 J63.304
X-62.575 Y-89.864 I-124.984 J137.25
X-72.719 Y-97.12 I-76.727 J96.556
G3 X-71.895 Y-99.93 I0.824 J-1.285
G1 X156.394 Y-99.916
G3 X160.247 Y-96.063 J3.853
G1 X160.229 Y96.39
G3 X156.376 Y100.243 I-3.853
G1 X-64.367 Y100.229
G3 X-65.36 Y97.307 J-1.63
G2 X-55.354 Y89.5 I-525.857 J-684.279
X-46.147 Y80.764 I-44.203 J-55.801
X-19.084 Y24.097 I-86.205 J-75.966
X-17.577 Y-7.684 I-129.824 J-22.081
X-24.972 Y-38.629 I-99.068 J7.317
X-36.659 Y-61.746 I-164.568 J68.688
X-50.276 Y-79.118 I-76.49 J45.932
X-56.247 Y-80.209 I-3.782 J3.807
G3 X-62.249 Y-81.119 I-2.293 J-5.129
G2 X-68.062 Y-86.12 I-238.354 J271.155
X-79.526 Y-94.163 I-51.277 J60.895
X-88.386 Y-98.966 I-93.56 J161.999
G3 X-97.245 Y-103.769 I84.7 J-166.802
X-96.502 Y-106.543 I0.743 J-1.287
G1 X163.005 Y-106.526
G3 X166.858 Y-102.673 J3.853
G1 X166.839 Y103.001
G3 X162.986 Y106.854 I-3.853
G1 X-88.19 Y106.838
G3 X-88.785 Y104.175 J-1.398
G2 X-68.52 Y92.218 I-53.406 J-113.667
X-51.107 Y76.393 I-62.418 J-86.174
X-25.601 Y22.989 I-81.245 J-71.596
X-24.146 Y-6.935 I-123.496 J-21.005
X-31.073 Y-36.083 I-92.599 J6.61
X-42.063 Y-57.939 I-160.147 J66.843
X-57.528 Y-76.894 I-71.379 J42.447
X-62.249 Y-81.119 I-243.076 J266.93
X-67.622 Y-81.786 I-3.176 J3.614
G3 X-73.018 Y-82.225 I-2.344 J-4.569
G2 X-84.877 Y-89.858 I-65.128 J88.147
G1 X-120.345 Y-109.961
G3 X-119.602 Y-112.735 I0.743 J-1.287
G1 X169.197 Y-112.717
G3 X173.049 Y-108.863 J3.853
G1 X173.029 Y109.192
G3 X169.176 Y113.045 I-3.853
G1 X-169.721 Y113.023
G3 X-169.723 Y108.426 J-2.299
X-143.471 Y109.121 I0.453 J479.054
G2 X-117.301 Y106.935 I5.169 J-95.848
X-95.127 Y100.366 I-37.556 J-167.495
X-74.89 Y89.171 I-26.941 J-72.585
X-57.789 Y74.096 I-103.27 J-134.382
X-44.37 Y55.667 I-53.613 J-53.139
X-35.048 Y34.274 I-155.11 J-80.317
X-30.599 Y11.367 I-72.419 J-25.951
X-30.546 Y-5.262 I-228.362 J-9.043
X-32.833 Y-21.733 I-79.465 J2.639
X-40.839 Y-43.908 I-110.492 J27.359
X-53.555 Y-63.762 I-89.082 J43.056
X-73.018 Y-82.225 I-84.591 J69.685
X-79.278 Y-82.548 I-3.374 J4.567
G3 X-85.543 Y-82.75 I-2.973 J-5.039
G2 X-100.152 Y-91.681 I-98.634 J144.934
G1 X-118.422 Y-101.8
X-136.569 Y-112.137
G2 X-141.74 Y-114.664 I-20.849 J36.099
X-147.088 Y-116.792 I-155.543 J383.225
G3 X-146.611 Y-119.325 I0.476 J-1.222
G1 X175.863 Y-119.305
G3 X179.638 Y-115.529 J3.776
G1 X179.617 Y115.858
G3 X175.841 Y119.634 I-3.776
G1 X-175.643 Y119.612
G3 X-179.419 Y115.836 J-3.776
G1 X-179.418 Y105.465
G3 X-175.725 Y101.832 I3.633
G1 X-153.212 Y101.976
X-130.7 Y101.678
G2 X-87.335 Y89.561 I-2.102 J-91.177
X-55.086 Y60.698 I-52.208 J-90.781
X-38.21 Y20.844 I-75.879 J-55.63
X-36.853 Y-5.487 I-111.344 J-18.938
X-42.876 Y-31.157 I-80.116 J5.256
X-52.519 Y-50.572 I-152.648 J63.713
X-66.139 Y-67.437 I-61.57 J35.791
X-85.543 Y-82.75 I-118.037 J129.621
X-90.938 Y-82.784 I-2.723 J4.002
G3 X-96.332 Y-82.692 I-2.77 J-4.184
G2 X-103.63 Y-86.931 I-91.133 J148.487
G1 X-121.605 Y-96.925
X-139.47 Y-107.114
G2 X-156.782 Y-114.145 I-33.982 J58.84
X-175.319 Y-116.491 I-18.833 J74.419
X-178.474 Y-116.413 I-0.213 J55.282
G3 X-181.627 Y-116.307 I-4.271 J-80.161
X-185.382 Y-120.011 I-0.052 J-3.703
G1 Y-121.459
G3 X-181.529 Y-125.312 I3.853
G1 X181.771 Y-125.289
G3 X185.624 Y-121.436 J3.853
G1 X185.602 Y121.766
G3 X181.748 Y125.619 I-3.853
G1 X-181.551 Y125.596
G3 X-185.404 Y121.743 J-3.853
G1 X-185.402 Y99.693
G3 X-181.558 Y95.839 I3.855
G1 X-135.311 Y96.363
G2 X-96.766 Y87.717 I-0.086 J-90.628
X-65.185 Y63.987 I-41.548 J-88.173
X-44.1 Y19.843 I-67.167 J-59.19
X-42.789 Y-4.811 I-105.724 J-17.982
X-48.389 Y-28.855 I-74.305 J4.632
X-57.403 Y-47.131 I-149.846 J62.543
X-70.162 Y-63.02 I-57.032 J32.728
X-96.332 Y-82.692 I-117.304 J128.815
X-104.673 Y-82.291 I-3.877 J6.316
G3 X-113.002 Y-81.687 I-4.632 J-6.137
G1 X-144.059 Y-99.168
G2 X-166.876 Y-106.826 I-30.303 J52.469
X-190.938 Y-106.256 I-10.114 J81.24
G3 X-194.559 Y-109.305 I-0.527 J-3.048
G1 X-194.557 Y-130.635
G3 X-190.703 Y-134.488 I3.853
G1 X190.948 Y-134.464
G3 X194.8 Y-130.611 J3.853
G1 X194.777 Y130.942
G3 X190.923 Y134.795 I-3.853
G1 X-190.728 Y134.771
G3 X-194.58 Y130.918 J-3.853
G1 X-194.577 Y90.519
G3 X-190.723 Y86.665 I3.854
G1 X-171.249 Y86.826
X-151.781 Y87.317
G2 X-113.003 Y83.682 I5.168 J-153.532
X-90.497 Y74.041 I-14.625 J-65.228
X-72.069 Y57.921 I-52.546 J-78.665
X-53.145 Y18.304 I-60.283 J-53.123
X-51.906 Y-3.772 I-97.191 J-16.531
X-56.857 Y-25.321 I-65.41 J3.685
X-64.904 Y-41.847 I-146.954 J61.336
X-76.339 Y-56.236 I-50.125 J28.097
X-109.045 Y-79.523 I-112.993 J124.082
G1 X-113.002 Y-81.687
G2 X-121.186 Y-81.059 I-3.611 J6.584
G3 X-129.375 Y-80.522 I-4.497 J-5.857
G1 X-148.462 Y-91.545
G2 X-173.829 Y-98.931 I-27.749 J48.048
X-199.917 Y-94.755 I-2.832 J65.886
G3 X-203.363 Y-97.14 I-0.899 J-2.384
G1 X-203.36 Y-139.44
G3 X-199.506 Y-143.292 I3.853
G1 X199.752 Y-143.267
G3 X203.605 Y-139.414 J3.853
G1 X203.579 Y139.747
G3 X199.726 Y143.599 I-3.853
G1 X-199.532 Y143.574
G3 X-203.385 Y139.721 J-3.853
G1 X-203.38 Y81.716
G3 X-199.526 Y77.863 I3.854
X-157.151 Y78.81 I0.152 J941.046
G2 X-114.929 Y75.092 I7.185 J-159.98
X-94.982 Y66.465 I-12.746 J-56.847
X-78.674 Y52.101 I-48.399 J-71.386
X-61.824 Y16.828 I-53.678 J-47.303
X-60.653 Y-2.775 I-89.168 J-15.166
X-64.981 Y-21.93 I-56.92 J2.796
X-72.1 Y-36.776 I-146.86 J61.297
X-82.267 Y-49.727 I-43.588 J23.75
X-89.745 Y-56.456 I-571.322 J627.39
X-97.902 Y-62.345 I-32.976 J37.086
G1 X-129.375 Y-80.522
G2 X-136.818 Y-80.043 I-3.362 J5.821
G3 X-144.26 Y-79.564 I-4.08 J-5.342
G1 X-152.6 Y-84.38
G2 X-178.067 Y-91.081 I-25.008 J43.301
X-203.471 Y-84.145 I0.475 J51.732
X-205.881 Y-82.65 I22.709 J39.308
G3 X-208.291 Y-81.155 I-25.119 J-37.813
X-211.638 Y-83.088 I-1.116 J-1.932
G1 X-211.633 Y-147.714
G3 X-207.779 Y-151.567 I3.853
G1 X208.026 Y-151.54
G3 X211.879 Y-147.687 J3.853
G1 X211.852 Y148.021
G3 X207.999 Y151.874 I-3.853
G1 X-207.807 Y151.848
G3 X-211.659 Y147.994 J-3.853
G1 X-211.653 Y73.444
G3 X-207.799 Y69.59 I3.854
G1 X-135.335 Y70.11
G2 X-107.583 Y63.797 I-0.061 J-64.421
X-84.881 Y46.63 I-30.772 J-64.289
X-69.981 Y15.441 I-47.471 J-41.833
X-68.873 Y-1.838 I-81.859 J-13.923
X-72.616 Y-18.743 I-48.994 J1.982
X-78.864 Y-32.011 I-151.444 J63.21
X-87.838 Y-43.61 I-37.543 J19.775
G1 X-94.456 Y-49.636
G2 X-102.04 Y-55.18 I-29.486 J32.379
G1 X-144.26 Y-79.564
G2 X-151.554 Y-79.174 I-3.348 J5.796
G3 X-158.832 Y-78.562 I-4.143 J-5.676
G2 X-172.549 Y-82.594 I-18.152 J36.404
X-189.251 Y-81.476 I-5.21 J47.491
X-203.315 Y-75.27 I10.765 J43.434
G3 X-216.372 Y-67.156 I-132.657 J-198.91
X-219.719 Y-69.088 I-1.116 J-1.932
G1 X-219.711 Y-155.794
G3 X-215.858 Y-159.646 I3.853
G1 X216.107 Y-159.619
G3 X219.959 Y-155.766 J3.853
G1 X219.931 Y156.101
G3 X216.078 Y159.953 I-3.853
G1 X-215.887 Y159.926
G3 X-219.739 Y156.073 J-3.853
G1 X-219.731 Y65.366
G3 X-215.878 Y61.512 I3.854
G1 X-135.343 Y62.031
G2 X-110.912 Y56.435 I-0.053 J-56.364
X-90.943 Y41.289 I-27.463 J-56.945
X-77.946 Y14.086 I-41.409 J-36.491
X-76.901 Y-0.924 I-75.08 J-12.77
X-80.072 Y-15.631 I-41.323 J1.216
X-85.469 Y-27.358 I-165.921 J69.253
X-93.277 Y-37.636 I-31.757 J16.02
G3 X-99.395 Y-43.254 I669.408 J-735.101
G2 X-106.08 Y-48.184 I-25.329 J27.352
G1 X-156.64 Y-77.384
G2 X-158.832 Y-78.562 I-20.344 J35.226
X-166.612 Y-77.298 I-3.011 J6.039
G3 X-174.027 Y-74.628 I-6.55 J-6.56
G2 X-187.307 Y-73.634 I-3.712 J39.603
X-191.55 Y-72.342 I10.162 J41.004
X-195.57 Y-70.47 I8.608 J23.732
X-210.011 Y-61.813 I261.185 J452.098
G3 X-224.452 Y-53.157 I-275.626 J-443.442
X-227.8 Y-55.089 I-1.116 J-1.932
G1 X-227.79 Y-163.874
G3 X-223.937 Y-167.726 I3.853
G1 X224.187 Y-167.698
G3 X228.039 Y-163.845 J3.853
G1 X228.01 Y164.181
G3 X224.156 Y168.033 I-3.853
G1 X-223.967 Y168.005
G3 X-227.82 Y164.152 J-3.853
G1 X-227.81 Y56.376
G3 X-224.237 Y53.224 I3.178
G1 X-222.562 Y53.433
G2 X-220.867 Y53.539 I1.693 J-13.521
G1 X-135.351 Y53.951
G2 X-114.241 Y49.073 I-0.046 J-48.313
X-97.005 Y35.947 I-24.161 J-49.608
X-85.911 Y12.731 I-35.348 J-31.149
X-84.928 Y-0.009 I-68.949 J-11.727
X-87.528 Y-12.519 I-33.745 J0.489
X-92.074 Y-22.704 I-211.398 J88.234
X-98.717 Y-31.662 I-26.117 J12.426
G3 X-104.163 Y-36.731 I229.2 J-251.693
G2 X-110.121 Y-41.187 I-21.709 J22.817
G1 X-160.681 Y-70.387
G2 X-173.679 Y-74.594 I-16.331 J28.277
X-174.027 Y-74.628 I-4.06 J39.568
X-180.828 Y-70.624 I-0.629 J6.71
G3 X-186.759 Y-65.416 I-8.538 J-3.742
G2 X-188.528 Y-64.85 I9.95 J34.143
X-191.529 Y-63.474 I5.792 J16.597
G1 X-212.031 Y-51.316
X-232.533 Y-39.158
G3 X-235.88 Y-41.09 I-1.116 J-1.932
G1 X-235.869 Y-171.953
G3 X-232.015 Y-175.806 I3.853
G1 X232.267 Y-175.777
G3 X236.119 Y-171.924 J3.853
G1 X236.088 Y172.26
G3 X232.235 Y176.113 I-3.853
G1 X-232.047 Y176.084
G3 X-235.9 Y172.231 J-3.853
G1 X-235.888 Y46.217
G3 X-232.269 Y43.306 I2.98
X-226.634 Y44.819 I-13.469 J61.403
G2 X-220.868 Y45.716 I5.763 J-18.066
G1 X-180.357 Y45.297
G3 X-175.987 Y45.308 I2.113 J28.818
G2 X-148.942 Y46.356 I26.796 J-341.927
X-122.042 Y43.368 I-0.09 J-123.359
X-111.544 Y38.488 I-5.949 J-26.531
X-103.066 Y30.605 I-35.275 J-46.439
X-93.876 Y11.376 I-29.286 J-25.808
X-92.955 Y0.906 I-64.199 J-10.919
X-94.984 Y-9.407 I-26.304 J-0.181
X-98.678 Y-18.051 I-511.942 J213.676
X-104.157 Y-25.689 I-20.666 J9.04
G3 X-108.931 Y-30.209 I113.753 J-124.917
G2 X-114.162 Y-34.191 I-18.218 J18.506
G1 X-164.722 Y-63.391
G2 X-174.81 Y-66.594 I-12.333 J21.354
X-185.364 Y-65.792 I-2.897 J31.698
X-186.759 Y-65.416 I8.555 J34.519
X-191.379 Y-58.945 I1.798 J6.169
G3 X-195.166 Y-51.954 I-7.68 J0.361
G1 X-238.182 Y-26.69
G2 X-239.609 Y-25.616 I3.693 J6.393
G3 X-240.91 Y-24.394 I-50.423 J-52.385
X-243.962 Y-25.737 I-1.231 J-1.343
G1 X-243.949 Y-178.896
G3 X-238.957 Y-183.887 I4.991
G1 X240.569 Y-183.325
G3 X242.362 Y-182.652 I-0.236 J3.352
X243.477 Y-181.096 I-1.952 J2.577
X243.616 Y-180.481 I-2.995 J0.997
X243.669 Y-179.852 I-8.473 J1.032
G1 X244.168 Y179.203
G3 X239.177 Y184.194 I-4.991
G1 X-240.349 Y183.632
G3 X-242.142 Y182.959 I0.236 J-3.352
X-243.257 Y181.403 I1.952 J-2.577
X-243.396 Y180.788 I2.995 J-0.997
X-243.449 Y180.159 I8.473 J-1.032
G1 X-243.968 Y31.595
G3 X-240.819 Y30.035 I1.961
X-236.692 Y33.214 I-286.49 J376.144
G2 X-231.977 Y35.428 I7.239 J-9.29
X-206.44 Y38.287 I26.409 J-120.398
X-180.765 Y37.223 I1.875 J-265.043
G3 X-175.538 Y37.236 I2.543 J28.203
G1 X-135.366 Y37.78
G2 X-120.904 Y34.339 I-0.031 J-32.235
X-109.137 Y25.256 I-17.595 J-34.958
X-103.022 Y13.062 I-20.093 J-17.707
X-101.342 Y-0.476 I-79.68 J-16.76
X-101.579 Y-3.444 I-12.487 J-0.494
X-102.452 Y-6.291 I-14.901 J3.009
G3 X-105.293 Y-13.391 I239.814 J-100.094
G2 X-109.605 Y-19.706 I-15.458 J5.924
G3 X-113.706 Y-23.676 I62.821 J-68.986
G2 X-118.208 Y-27.184 I-14.874 J14.451
G1 X-168.768 Y-56.384
G2 X-175.942 Y-58.582 I-8.358 J14.472
X-183.417 Y-57.938 I-1.701 J23.944
X-185.501 Y-57.346 I7.675 J30.969
X-187.481 Y-56.468 I3.116 J9.699
G1 X-195.166 Y-51.954
G2 X-198.342 Y-45.49 I3.313 J5.641
G3 X-201.519 Y-39.025 I-6.414 J0.861
G1 X-234.35 Y-20.057
G2 X-234.943 Y-19.622 I1.692 J2.929
G1 X-241.66 Y-13.468
G2 X-242.085 Y-12.998 I2.285 J2.494
G1 X-242.591 Y-12.32
G2 X-243.002 Y-11.6 I2.71 J2.024
G1 X-246.452 Y-3.343
G2 X-246.595 Y-2.927 I3.121 J1.304
G1 X-246.897 Y-1.818
G2 X-247.013 Y-0.793 I3.263 J0.888
G1 X-246.631 Y8.596
G2 X-246.507 Y9.376 I3.379 J-0.137
G1 X-246.202 Y10.46
G2 X-245.942 Y11.114 I3.255 J-0.918
G1 X-241.627 Y19.336
G2 X-241.076 Y20.102 I2.995 J-1.572
G1 X-240.387 Y20.822
G2 X-239.993 Y21.174 I2.444 J-2.338
G1 X-232.702 Y26.728
G2 X-231.815 Y27.213 I2.049 J-2.691
G1 X-230.728 Y27.611
G2 X-230.29 Y27.739 I1.163 J-3.176
G1 X-221.596 Y29.646
G2 X-220.871 Y29.724 I0.725 J-3.304
G1 X-181.746 Y29.718
G2 X-180.777 Y29.576 I-0.001 J-3.382
G1 X-179.691 Y29.251
G2 X-178.806 Y28.84 I-0.969 J-3.24
G1 X-178.233 Y28.464
G2 X-177.821 Y28.707 I1.921 J-2.784
G1 X-176.735 Y29.249
G2 X-175.832 Y29.55 I1.509 J-3.027
G1 X-175.107 Y29.682
G2 X-174.498 Y29.736 I0.606 J-3.327
G1 X-135.374 Y29.699
G2 X-134.637 Y29.617 I-0.003 J-3.382
G1 X-125.58 Y27.587
G2 X-124.634 Y27.218 I-0.74 J-3.3
G1 X-123.547 Y26.593
G2 X-123.173 Y26.343 I-1.686 J-2.932
G1 X-116.288 Y21.052
G2 X-115.811 Y20.607 I-2.061 J-2.682
G1 X-115.2 Y19.913
G2 X-114.734 Y19.232 I-2.537 J-2.236
G1 X-110.335 Y10.736
G2 X-110.004 Y9.748 I-3.003 J-1.555
G1 X-109.82 Y8.665
G2 X-109.774 Y8.231 I-3.334 J-0.567
G1 X-109.417 Y-0.796
G2 X-109.513 Y-1.743 I-3.379 J-0.134
G1 X-109.748 Y-2.688
G2 X-109.909 Y-3.178 I-3.283 J0.813
G1 X-113.415 Y-11.578
G2 X-113.926 Y-12.426 I-3.121 J1.303
G1 X-114.713 Y-13.381
G2 X-115.046 Y-13.731 I-2.61 J2.15
G1 X-121.664 Y-19.758
G2 X-122.25 Y-20.186 I-2.277 J2.501
G1 X-172.81 Y-49.386
G2 X-173.508 Y-49.69 I-1.691 J2.929
G1 X-174.595 Y-50.024
G2 X-175.575 Y-50.173 I-0.994 J3.233
G1 X-180.647 Y-50.193
G2 X-181.473 Y-50.094 I-0.013 J3.382
G1 X-182.56 Y-49.824
G2 X-183.438 Y-49.47 I0.814 J3.283
G1 X-201.519 Y-39.025
G3 X-203.007 Y-39.739 I-0.5 J-0.866
G1 X-211.625 Y-95.882
G3 X-211.384 Y-96.698 I0.988 J-0.152
X-202.363 Y-88.687 Z-16.162 I4.511 J4.006
X-211.384 Y-96.698 Z-16.824 I-4.511 J-4.006
X-202.363 Y-88.687 Z-17.485 I4.511 J4.006
X-211.384 Y-96.698 Z-18.147 I-4.511 J-4.006
X-202.363 Y-88.687 Z-18.809 I4.511 J4.006
X-211.384 Y-96.698 Z-19.471 I-4.511 J-4.006
X-202.363 Y-88.687 Z-20.133 I4.511 J4.006
X-211.384 Y-96.698 Z-20.794 I-4.511 J-4.006
X-202.363 Y-88.687 Z-21.456 I4.511 J4.006
X-211.384 Y-96.698 Z-22.118 I-4.511 J-4.006
X-202.363 Y-88.687 Z-22.78 I4.511 J4.006
X-211.384 Y-96.698 Z-23.442 I-4.511 J-4.006
X-202.363 Y-88.687 Z-24.103 I4.511 J4.006
X-211.384 Y-96.698 Z-24.765 I-4.511 J-4.006
X-202.363 Y-88.687 Z-25.427 I4.511 J4.006
X-203.989 Y-87.394 Z-25.5 I-4.511 J-4.006
G2 X-205.092 Y-86.774 I22.326 J41.008
G3 X-208.373 Y-88.668 I-1.094 J-1.893
G1 X-208.372 Y-96.306
G3 X-205.76 Y-96.906 I1.375
G2 X-204.331 Y-94.104 I70.279 J-34.082
X-202.772 Y-91.372 I51.829 J-27.766
G3 X-203.829 Y-87.481 I-2.378 J1.443
G1 X-203.989 Y-87.394
G2 X-206.505 Y-82.46 I2.343 J4.304
G3 X-208.947 Y-77.488 I-4.97 J0.645
X-211.145 Y-76.211 I-255.303 J-436.835
X-214.492 Y-78.144 I-1.116 J-1.932
G1 X-214.486 Y-150.567
G3 X-210.632 Y-154.42 I3.853
G1 X-208.8
G3 X-205.851 Y-150.848 J3.004
G2 X-207.027 Y-121.718 I95.741 J18.455
X-197.534 Y-94.154 I65.813 J-7.249
X-195.777 Y-91.501 I43.317 J-26.776
G3 X-194.021 Y-88.849 I-41.561 J29.428
X-195.527 Y-84.515 I-2.515 J1.555
G2 X-203.519 Y-80.707 I15.651 J43.128
G3 X-208.947 Y-77.488 I-260.731 J-433.617
G2 X-211.916 Y-71.152 I3.11 J5.322
G3 X-214.845 Y-64.795 I-6.138 J1.025
X-219.294 Y-62.171 I-147.83 J-245.561
X-222.574 Y-64.065 I-1.094 J-1.893
G1 X-222.566 Y-158.725
G3 X-218.789 Y-162.501 I3.776
G1 X-197.085 Y-162.5
G3 X-194.736 Y-159.065 J2.521
G1 X-197.291 Y-152.496
G2 X-198.86 Y-145.505 I22.298 J8.674
G3 X-199.697 Y-134.989 I-579.321 J-40.835
G2 X-199.411 Y-124.444 I45.52 J4.041
X-192.688 Y-101.561 I82.849 J-11.914
X-178.967 Y-82.054 I59.194 J-27.056
G3 X-180.166 Y-79.125 I-1.193 J1.222
G2 X-189.447 Y-78.25 I-0.184 J47.69
X-198.179 Y-74.984 I5.382 J27.695
X-208.736 Y-68.578 I143.381 J248.185
G3 X-214.845 Y-64.795 I-153.938 J-241.779
X-215.45 Y-64.625 Z-25.33 I-0.635 J-1.1
X-215.906 Y-64.699 Z-24.865 I-0.03 J-1.27
G1 X-216.062 Y-64.766 Z-24.23
G0 Z11
X-87.671 Y103.835
Z-12.481
G1 X-87.51 Y103.862 Z-13.103 F6000
G3 X-87.074 Y103.958 Z-13.566 I-1.078 J5.935
X-86.487 Y104.143 Z-13.75 I-1.515 J5.839
X-90.691 Y115.452 Z-14.412 I-2.102 J5.654
X-86.487 Y104.143 Z-15.074 I2.102 J-5.654
X-90.691 Y115.452 Z-15.735 I-2.102 J5.654
X-86.487 Y104.143 Z-16.397 I2.102 J-5.654
X-90.691 Y115.452 Z-17.059 I-2.102 J5.654
X-86.487 Y104.143 Z-17.721 I2.102 J-5.654
X-90.691 Y115.452 Z-18.383 I-2.102 J5.654
X-86.487 Y104.143 Z-19.044 I2.102 J-5.654
X-90.691 Y115.452 Z-19.706 I-2.102 J5.654
X-86.487 Y104.143 Z-20.368 I2.102 J-5.654
X-90.691 Y115.452 Z-21.03 I-2.102 J5.654
X-86.487 Y104.143 Z-21.692 I2.102 J-5.654
X-90.691 Y115.452 Z-22.353 I-2.102 J5.654
X-86.487 Y104.143 Z-23.015 I2.102 J-5.654
X-90.691 Y115.452 Z-23.677 I-2.102 J5.654
X-86.487 Y104.143 Z-24.339 I2.102 J-5.654
X-90.691 Y115.452 Z-25.001 I-2.102 J5.654
X-91.024 Y104.278 Z-25.5 I2.102 J-5.654
G2 X-90.612 Y104.095 I-35.296 J-79.992
G3 X-88.483 Y106.033 I0.641 J1.433
G1 X-88.672 Y106.596
G3 X-90.163 Y107.672 I-1.49 J-0.494
G1 X-92.336
G3 X-92.855 Y105.061 J-1.357
G2 X-91.024 Y104.278 I-33.465 J-80.775
X-88.154 Y99.719 I-1.945 J-4.407
G3 X-85.499 Y95.032 I5.177 J-0.163
G2 X-84.511 Y94.472 I-41.399 J-74.264
X-80.586 Y91.891 I-19.555 J-34.004
G1 X-76.521 Y88.853
G3 X-74.61 Y90.589 I0.787 J1.053
G1 X-77.015 Y94.545
G2 X-79.059 Y98.284 I39.694 J24.127
X-81.425 Y103.974 I45.989 J22.465
X-83.356 Y109.828 I189.578 J65.762
G3 X-88.657 Y113.724 I-5.301 J-1.658
G1 X-170.095 Y113.719
G3 X-170.098 Y107.731 J-2.994
X-143.736 Y108.435 I0.451 J477.046
G2 X-117.455 Y106.246 I5.227 J-96.087
X-100.539 Y101.602 I-40.569 J-180.934
X-85.499 Y95.032 I-26.359 J-80.834
G3 X-84.893 Y94.863 Z-25.33 I0.633 J1.101
X-84.437 Y94.937 Z-24.865 I0.028 J1.27
G1 X-84.281 Y95.005 Z-24.23
G0 Z11
X41.622 Y-40.684
Z-12.481
G1 X41.758 Y-40.595 Z-13.103 F6000
G3 X42.119 Y-40.331 Z-13.566 I-3.383 J4.995
X42.581 Y-39.925 Z-13.75 I-3.743 J4.731
X34.169 Y-31.276 Z-14.412 I-4.206 J4.324
X42.581 Y-39.925 Z-15.074 I4.206 J-4.324
X34.169 Y-31.276 Z-15.735 I-4.206 J4.324
X42.581 Y-39.925 Z-16.397 I4.206 J-4.324
X34.169 Y-31.276 Z-17.059 I-4.206 J4.324
X42.581 Y-39.925 Z-17.721 I4.206 J-4.324
X34.169 Y-31.276 Z-18.383 I-4.206 J4.324
X42.581 Y-39.925 Z-19.044 I4.206 J-4.324
X34.169 Y-31.276 Z-19.706 I-4.206 J4.324
X42.581 Y-39.925 Z-20.368 I4.206 J-4.324
X34.169 Y-31.276 Z-21.03 I-4.206 J4.324
X42.581 Y-39.925 Z-21.692 I4.206 J-4.324
X34.169 Y-31.276 Z-22.353 I-4.206 J4.324
X42.581 Y-39.925 Z-23.015 I4.206 J-4.324
X34.169 Y-31.276 Z-23.677 I-4.206 J4.324
X42.581 Y-39.925 Z-24.339 I4.206 J-4.324
X34.169 Y-31.276 Z-25.001 I-4.206 J4.324
X38.376 Y-41.633 Z-25.5 I4.206 J-4.324
G1 X48.534 Y-41.632
G3 X50.364 Y-40.576 J2.114
G1 X50.937 Y-39.584
G3 X49.005 Y-36.233 I-1.934 J1.117
G1 X37.915 Y-36.222
G3 X35.861 Y-37.828 I-0.002 J-2.114
G1 X35.569 Y-39.007
G3 X37.62 Y-41.633 I2.051 J-0.512
G1 X38.376
G2 X42.587 Y-44.44 J-4.562
G3 X46.798 Y-47.247 I4.211 J1.755
G1 X49.063
G3 X54.96 Y-43.843 J6.811
G1 X59.6 Y-35.811
G2 X60.756 Y-33.846 I127.767 J-73.809
G3 X58.879 Y-30.603 I-1.839 J1.1
G2 X47.383 Y-30.658 I-7.888 J444.487
G1 X35.887 Y-30.606
G3 X30.869 Y-34.58 I-0.005 J-5.148
G2 X28.475 Y-43.688 I-170.047 J39.829
G3 X31.135 Y-47.248 I2.66 J-0.786
G1 X46.798 Y-47.247
G2 X51.916 Y-51.157 J-5.304
G3 X58.062 Y-53.083 I3.69 J1.005
X59.963 Y-50.82 I-5.459 J6.515
X62.995 Y-45.172 I-88.861 J51.334
G2 X66.027 Y-39.523 I91.893 J-45.685
X71.055 Y-31.824 I72.848 J-42.083
X76.576 Y-24.472 I340.777 J-250.14
G3 X74.93 Y-21.586 I-1.428 J1.097
G1 X65.552 Y-22.753
G2 X56.121 Y-23.347 I-9.358 J73.482
G1 X29.29 Y-22.777
G3 X24.535 Y-26.718 I-0.005 J-4.833
G2 X18.168 Y-49.956 I-144.931 J27.215
G3 X21.741 Y-55.07 I3.572 J-1.309
G1 X52.604 Y-55.069
G3 X58.062 Y-53.083 I-0.001 J8.5
G2 X63.814 Y-51.421 I4.756 J-5.676
G3 X69.126 Y-48.66 I0.698 J5.147
G2 X72.179 Y-43.077 I120.871 J-62.479
X82.939 Y-27.668 I95.039 J-54.903
X95.267 Y-13.483 I357.529 J-298.275
G3 X93.762 Y-10.889 I-1.167 J1.057
G1 X82.049 Y-13.463
G2 X70.635 Y-15.332 I-22.979 J104.543
X56.128 Y-16.111 I-14.374 J132.26
G1 X22.901 Y-15.535
G3 X18.4 Y-19.441 I-0.005 J-4.541
G2 X10.965 Y-48.569 I-135.886 J19.173
G3 X11.597 Y-56.321 I8.518 J-3.208
G1 X12.6 Y-58.06
G3 X19.949 Y-62.306 I7.349 J4.236
G1 X56.78 Y-62.304
G3 X64.14 Y-58.056 I-0.001 J8.5
X68.159 Y-50.567 I-117.818 J68.062
G2 X69.126 Y-48.66 I121.838 J-60.572
X74.477 Y-45.774 I4.789 J-2.475
G3 X79.931 Y-43.087 I0.595 J5.67
G2 X100.095 Y-17.322 I123.164 J-75.619
X128.564 Y5.616 I113.456 J-111.677
G3 X129.296 Y6.944 I-0.838 J1.328
X126.987 Y8.361 I-1.57 J0.031
G2 X99.266 Y-2.896 I-67.803 J127.202
X69.913 Y-8.695 I-48.005 J165.827
X56.135 Y-9.434 I-13.652 J125.622
G1 X16.648 Y-8.812
G3 X12.489 Y-12.506 I-0.106 J-4.068
G2 X3.995 Y-48.087 I-128.506 J11.874
G3 X4.704 Y-57.733 I10.352 J-4.088
G1 X8.742 Y-64.737
G3 X16.091 Y-68.984 I7.349 J4.236
G1 X60.634 Y-68.981
G3 X67.993 Y-64.733 I-0.001 J8.5
X72.972 Y-55.572 I-173.369 J100.152
G2 X77.95 Y-46.411 I178.347 J-90.992
X79.931 Y-43.087 I125.144 J-72.294
X86.721 Y-40.024 I5.65 J-3.469
G3 X93.641 Y-37.267 I1.221 J6.995
G2 X106.086 Y-22.769 I109.702 J-81.582
X133.269 Y-0.993 I106.966 J-105.671
G3 X137.396 Y6.46 I-4.665 J7.452
G1 X137.394 Y20.25
G3 X134.095 Y22.055 I-2.144
G1 X125.099 Y16.331
G2 X115.718 Y11.264 I-41.639 J65.875
X92.853 Y3.448 I-51.432 J113.111
X69.038 Y-0.642 I-44.929 J190.188
G1 X19.807 Y-1.104
G2 X14.225 Y-0.792 I0.051 J50.986
G3 X8.664 Y-0.216 I-41.45 J-372.894
X4.894 Y-3.565 I-0.329 J-3.427
G2 X-4.352 Y-47.236 I-120.499 J2.698
X-4.65 Y-47.892 I-10.633 J4.438
G3 X-4.949 Y-48.547 I10.335 J-5.094
X-4.327 Y-58.283 I10.157 J-4.239
G1 X4.062 Y-72.837
G3 X11.411 Y-77.083 I7.349 J4.236
G1 X65.309 Y-77.08
G3 X72.669 Y-72.832 I-0.001 J8.5
G1 X84.964 Y-50.463
G2 X93.641 Y-37.267 I118.379 J-68.386
X100.478 Y-34.878 I5.182 J-3.854
G3 X107.411 Y-32.786 I1.769 J6.674
G2 X141.199 Y-5.459 I98.971 J-87.818
G3 X145.303 Y1.619 I-4.049 J7.078
G1 X145.3 Y35.536
G3 X142.105 Y37.125 I-1.993
G2 X119.638 Y22.416 I-119.381 J157.835
X94.812 Y12.177 I-54.654 J97.305
X57.503 Y6.843 I-39.285 J141.641
G1 X19.815 Y6.609
G2 X9.593 Y7.417 I0.066 J65.872
G1 X0.349 Y8.879
G3 X-3.163 Y5.756 I-0.475 J-3.002
G2 X-3.329 Y-11.419 I-174.243 J-6.9
X-5.91 Y-28.4 I-93.433 J5.515
X-9.439 Y-38.913 I-66.458 J16.456
G1 X-13.759 Y-49.127
G3 X-13.14 Y-58.828 I10.121 J-4.224
G1 X-0.507 Y-80.744
G3 X6.843 Y-84.991 I7.349 J4.236
G1 X69.873 Y-84.987
G3 X77.233 Y-80.739 I-0.001 J8.5
G1 X91.811 Y-54.418
G2 X107.411 Y-32.786 I114.572 J-66.187
X114.215 Y-31.062 I4.671 J-4.145
G3 X121.091 Y-29.651 I2.29 J6.301
G2 X148.78 Y-10.015 I85.316 J-90.969
G3 X152.932 Y-3.192 I-3.53 J6.823
G1 X152.927 Y53.08
G3 X149.906 Y54.287 I-1.751
G2 X112.135 Y27.223 I-89.717 J85.325
X67.36 Y14.802 I-60.305 J130.474
G1 X19.822 Y14.237
G2 X5.887 Y15.543 I0.076 J75.822
G1 X-7.856 Y18.198
G3 X-11.219 Y15.234 I-0.549 J-2.767
G2 X-10.63 Y-5.748 I-250.347 J-17.527
X-13.315 Y-26.566 I-91.869 J1.265
X-17.407 Y-38.505 I-70.091 J17.355
G3 X-22.426 Y-50.085 I657 J-291.616
X-21.879 Y-58.942 I9.171 J-3.879
G1 X-4.892 Y-88.412
G3 X2.389 Y-92.619 I7.281 J4.197
G1 X74.363 Y-92.615
G3 X81.592 Y-88.442 I-0.001 J8.349
G1 X98.416 Y-58.234
G2 X121.091 Y-29.651 I107.992 J-62.385
X127.463 Y-28.55 I4.022 J-4.288
G3 X133.874 Y-27.707 I2.506 J5.747
G2 X142.683 Y-21.663 I46.888 J-58.897
X155.905 Y-14.46 I120.9 J-206.193
G3 X160.116 Y-7.619 I-3.452 J6.841
G1 X160.108 Y73.972
G3 X157.228 Y74.892 I-1.587
X152.168 Y67.581 I276.441 J-196.742
G2 X146.688 Y60.58 I-51.459 J34.629
X110.185 Y33.903 I-82.756 J74.927
X66.584 Y21.943 I-58.982 J129.568
G1 X19.83 Y21.42
G2 X1.319 Y23.243 I0.096 J95.888
X-16.732 Y27.73 I37.333 J188.739
G3 X-19.684 Y25.121 I-0.667 J-2.22
G2 X-17.408 Y0.109 I-159.207 J-27.097
X-20.288 Y-24.84 I-98.5 J-1.272
X-24.834 Y-38.156 I-79.274 J19.629
X-30.685 Y-50.953 I-472.708 J208.406
G3 X-30.182 Y-59.097 I7.632 J-3.616
G2 X-19.289 Y-77.237 I-356.581 J-226.475
G1 X-8.997 Y-95.724
G3 X-2.119 Y-99.803 I6.878 J3.759
G1 X78.918 Y-99.798
G3 X85.736 Y-95.72 J7.74
G2 X105.292 Y-61.181 I784.2 J-421.219
X130.522 Y-30.539 I113.089 J-67.405
X133.874 Y-27.707 I50.239 J-56.065
X140.161 Y-27.222 I3.502 J-4.399
G3 X146.464 Y-27.01 I2.979 J5.224
G2 X148.159 Y-25.907 I63.414 J-95.614
X155.407 Y-22.067 I27.915 J-43.931
G3 X162.836 Y-18.589 I-55.214 J127.621
X166.924 Y-11.945 I-3.352 J6.643
G1 X166.914 Y100.858
G3 X164.321 Y101.353 I-1.344
G2 X140.04 Y63.847 I-106.067 J42.053
X103.496 Y38.143 I-86.486 J84.13
X62.198 Y28.695 I-43.731 J96.175
G1 X41.019 Y28.335
X19.836 Y28.229
G2 X-4.164 Y31.032 I0.105 J105.031
X-27.027 Y38.85 I28.364 J120.288
G3 X-29.522 Y36.618 I-0.758 J-1.663
G2 X-24.001 Y6.892 I-108.569 J-35.54
X-26.896 Y-23.203 I-103.198 J-5.259
X-31.918 Y-37.84 I-85.674 J21.214
X-38.703 Y-51.747 I-198.403 J88.191
G3 X-38.237 Y-59.296 I6.372 J-3.395
G2 X-24.824 Y-80.43 I-215.949 J-151.876
X-13.124 Y-102.559 I-342.621 J-195.301
G3 X-6.633 Y-106.612 I6.491 J3.172
G1 X83.452 Y-106.606
G3 X89.904 Y-102.544 J7.155
X91.333 Y-99.47 I-127.568 J61.166
G2 X92.879 Y-96.453 I30.704 J-13.827
G1 X110.531 Y-65.233
G2 X146.464 Y-27.01 I99.346 J-57.391
X152.773 Y-27.094 I3.093 J-4.663
G3 X159.06 Y-27.625 I3.599 J5.123
G2 X160.524 Y-26.95 I29.159 J-61.323
G1 X169.786 Y-22.813
G3 X173.736 Y-16.722 I-2.72 J6.09
G1 X173.725 Y109.965
G3 X169.949 Y113.74 I-3.776
G1 X165.373
G3 X160.094 Y109.845 J-5.525
G2 X137.401 Y70.731 I-96.325 J29.746
X100.672 Y44.353 I-84.771 J79.276
X60.757 Y35.364 I-41.55 J91.378
G1 X19.843 Y35.051
G2 X-27.198 Y45.887 I0.108 J107.994
X-35.225 Y50.729 I23.512 J48.051
G3 X-42.938 Y56.057 I-106.415 J-145.791
X-45.001 Y54.192 I-0.786 J-1.204
X-42.917 Y50.458 I60.783 J31.474
G2 X-40.833 Y46.724 I-58.699 J-35.208
X-30.958 Y13.246 I-81.656 J-42.282
X-33.519 Y-21.563 I-103.095 J-9.916
X-39.075 Y-37.556 I-89.772 J22.229
X-46.983 Y-52.527 I-128.727 J58.424
G3 X-46.65 Y-59.315 I5.181 J-3.148
G2 X-30.546 Y-83.487 I-206.35 J-154.922
X-17.474 Y-109.425 I-194.071 J-114.067
G3 X-11.427 Y-113.423 I6.047 J2.573
G1 X88.137 Y-113.417
G3 X94.258 Y-109.434 J6.695
X96.337 Y-104.558 I-174.475 J77.284
G2 X98.674 Y-99.801 I36.447 J-14.948
G1 X116.439 Y-68.645
G2 X151.801 Y-31.638 I93.684 J-54.12
X159.06 Y-27.625 I36.418 J-57.311
X164.66 Y-28.338 I2.245 J-4.721
G3 X170.252 Y-29.115 I3.417 J4.082
G2 X175.661 Y-26.855 I47.961 J-107.189
G3 X179.732 Y-20.904 I-2.314 J5.951
G1 X179.72 Y115.883
G3 X175.866 Y119.736 I-3.853
G1 X160.642 Y119.735
G3 X155.507 Y115.717 J-5.291
G2 X134.403 Y76.193 I-88.789 J22.012
X98.195 Y49.801 I-82.183 J74.718
X59.493 Y41.213 I-39.657 J87.215
G1 X19.849 Y41.035
G2 X-14.584 Y47.364 I0.097 J97.364
X-45.191 Y64.36 I43.157 J113.781
X-66.358 Y87.194 I55.121 J72.323
X-78.795 Y115.737 I79.735 J51.726
G3 X-83.904 Y119.72 I-5.109 J-1.285
G1 X-175.668 Y119.714
G3 X-179.521 Y115.861 J-3.853
G1 X-179.52 Y105.446
G3 X-175.742 Y101.73 I3.717
G1 X-153.236 Y101.879
X-130.732 Y101.588
G2 X-87.381 Y89.482 I-2.072 J-91.091
X-66.195 Y73.7 I-55.784 J-97
X-50.312 Y52.59 I-54.587 J-57.6
X-41.516 Y32.563 I-151.873 J-78.641
X-37.285 Y11.102 I-66.505 J-24.262
X-37.818 Y-10.32 I-166.216 J-6.582
X-42.96 Y-31.121 I-70.004 J6.27
X-48.154 Y-42.412 I-160.506 J66.992
X-54.496 Y-53.101 I-80.896 J40.775
G3 X-54.183 Y-59.479 I4.324 J-2.985
G2 X-39.453 Y-80.84 I-100.644 J-85.163
G1 X-26.695 Y-103.435
G2 X-23.945 Y-109.163 I-36.585 J-21.088
G1 X-21.501 Y-115.42
G3 X-15.646 Y-119.419 I5.855 J2.286
G1 X92.393 Y-119.412
G3 X98.249 Y-115.412 J6.288
G2 X109.106 Y-93.083 I144.406 J-56.407
G1 X121.621 Y-71.639
G2 X144.819 Y-44.636 I83.386 J-48.171
X170.252 Y-29.115 I73.394 J-91.669
X179.683 Y-31.439 I3.226 J-7.21
G3 X189.049 Y-28.861 I4.14 J3.26
X189.095 Y-28.146 I-5.478 J0.714
G1 X189.081 Y125.246
G3 X185.228 Y129.099 I-3.853
G1 X153.262 Y129.097
G3 X148.13 Y125.054 J-5.28
G2 X144.941 Y112.534 I-493.589 J119.025
X139.998 Y100.597 I-47.923 J12.855
X116.785 Y72.233 I-98.039 J56.552
X84.557 Y54.775 I-54.097 J61.391
X70.526 Y51.604 I-39.821 J143.571
X56.194 Y50.362 I-14.249 J81.08
G1 X19.859 Y50.398
G2 X-11.584 Y56.233 I0.088 J88.106
X-39.516 Y71.806 I40.259 J105.044
X-54.057 Y86.242 I47.709 J62.598
X-64.879 Y103.642 I79.545 J61.542
X-68.725 Y114.16 I48.54 J23.711
X-71.378 Y125.04 I718.48 J180.944
G3 X-76.486 Y129.083 I-5.107 J-1.204
G1 X-185.032 Y129.076
G3 X-188.884 Y125.223 J-3.853
G1 X-188.882 Y96.213
G3 X-185.028 Y92.36 I3.854
G1 X-161.421 Y92.508
X-137.817 Y92.961
G2 X-92.048 Y81.366 I2.239 J-87.287
X-72.959 Y67.228 I-51.344 J-89.281
X-58.626 Y48.285 I-48.018 J-51.229
X-50.567 Y30.168 I-148.58 J-76.935
X-46.64 Y10.732 I-58.325 J-21.901
X-47.032 Y-8.663 I-162.123 J-6.42
X-51.6 Y-27.515 I-61.571 J4.939
X-58.157 Y-41.121 I-130 J54.26
X-66.68 Y-53.59 I-68.366 J37.586
G3 X-66.624 Y-59.429 I3.452 J-2.887
X-59.245 Y-67.773 I497.813 J432.816
G2 X-52.704 Y-76.788 I-39.569 J-35.594
G1 X-34.688 Y-108.043
G2 X-31.024 Y-116.197 I-38.589 J-22.243
G3 X-28.155 Y-124.664 I885.437 J295.233
X-22.384 Y-128.782 I5.771 J1.986
G1 X99.131 Y-128.774
G3 X104.903 Y-124.656 J6.104
G1 X107.954 Y-115.79
G2 X111.788 Y-107.377 I45.504 J-15.658
G1 X131.449 Y-73.618
G2 X158.583 Y-45.512 I71.768 J-42.135
X185.154 Y-33.439 I56.24 J-88.505
G3 X189.049 Y-28.861 I-1.583 J5.293
G2 X193.964 Y-22.51 I7.889 J-1.028
G3 X198.457 Y-15.854 I-2.683 J6.655
G1 X198.443 Y134.609
G3 X194.59 Y138.462 I-3.853
G1 X145.175 Y138.459
G3 X140.592 Y134.582 J-4.647
G2 X136.257 Y115.977 I-150.76 J25.32
X127.862 Y98.817 I-56.191 J16.856
X111.753 Y80.664 I-92.324 J65.706
X91.482 Y67.318 I-52.713 J58
X56.204 Y59.724 I-35.05 J77.083
G1 X19.868 Y59.761
G2 X-8.585 Y65.102 I0.079 J78.867
X-33.841 Y79.253 I37.384 J96.339
X-46.818 Y92.18 I42.109 J55.25
X-56.467 Y107.751 I72.494 J55.696
X-61.148 Y120.902 I55.897 J27.305
X-63.88 Y134.592 I209.057 J48.845
G3 X-68.427 Y138.446 I-4.547 J-0.755
G1 X-194.395 Y138.438
G3 X-198.248 Y134.585 J-3.853
G1 X-198.243 Y86.852
G3 X-194.39 Y82.999 I3.854
G1 X-174.2 Y83.191
X-154.017 Y83.774
G2 X-113.805 Y80.104 I6.024 J-156.147
X-92.726 Y71.184 I-14.005 J-62.463
X-75.431 Y56.191 I-46.883 J-71.548
X-61.763 Y34.951 I-63.174 J-55.671
X-55.995 Y10.361 I-60.758 J-27.224
X-56.247 Y-7.006 I-160.501 J-6.356
X-60.241 Y-23.909 I-53.26 J3.66
X-68.088 Y-39.57 I-117.068 J48.862
X-79.141 Y-53.159 I-50.707 J29.956
X-79.724 Y-53.658 I-8.261 J9.071
G3 X-80.307 Y-54.156 I7.678 J-9.57
X-80.241 Y-59.042 I2.198 J-2.414
G2 X-58.788 Y-84.98 I-65.673 J-76.159
G1 X-42.8 Y-112.718
G2 X-38.172 Y-123.234 I-46.023 J-26.528
X-34.835 Y-134.228 I-477.348 J-150.903
G3 X-29.615 Y-138.145 I5.22 J1.519
G1 X106.361 Y-138.136
G3 X111.583 Y-134.219 J5.439
G2 X123.107 Y-106.822 I124.573 J-36.282
G1 X137.835 Y-81.006
G2 X161.693 Y-54.611 I73.51 J-42.465
X194.503 Y-40.847 I46.128 J-63.974
G3 X198.458 Y-36.156 I-0.804 J4.691
G1 X198.457 Y-15.854
G2 X202.918 Y-9.161 I7.251 J0.001
G3 X207.38 Y-2.467 I-2.789 J6.693
G1 X207.366 Y143.534
G3 X203.513 Y147.387 I-3.853
G1 X136.276 Y147.383
G3 X132.492 Y143.644 J-3.785
G2 X130.082 Y125.149 I-79.717 J0.98
X123.078 Y107.862 I-65.639 J16.536
X112.901 Y93.959 I-68.814 J39.694
X99.904 Y82.648 I-55.837 J51.038
X84.215 Y74.49 I-40.975 J59.634
X67.19 Y69.714 I-37.043 J99.31
X56.213 Y68.648 I-11.187 J58.172
G1 X19.877 Y68.685
G2 X-5.726 Y73.556 I0.07 J70.083
X-28.431 Y86.35 I34.677 J88.083
X-39.918 Y97.84 I36.787 J48.268
X-48.448 Y111.668 I65.827 J50.15
X-53.832 Y127.251 I60.997 J29.796
X-55.733 Y143.627 I84.656 J18.126
G3 X-59.553 Y147.37 I-3.82 J-0.077
G1 X-203.32 Y147.361
G3 X-207.173 Y143.508 J-3.853
G1 X-207.167 Y77.93
G3 X-203.313 Y74.076 I3.854
G1 X-135.331 Y74.596
G2 X-106.115 Y68.166 I-0.066 J-69.884
X-82.127 Y50.29 I-30.345 J-65.755
X-70.048 Y31.633 I-56.619 J-49.894
X-64.912 Y10.008 I-52.586 J-23.911
X-65.03 Y-5.426 I-163.314 J-6.467
X-68.476 Y-20.471 I-45.48 J2.499
X-75.241 Y-34.555 I-137.645 J57.45
X-84.897 Y-46.839 I-41.494 J22.679
X-95.366 Y-55.496 I-95.868 J105.276
G3 X-95.097 Y-59.452 I1.413 J-1.891
G2 X-82.042 Y-69.208 I-29.109 J-52.563
X-71.394 Y-81.545 I-70.703 J-71.784
G1 X-50.532 Y-117.175
G2 X-45.111 Y-129.829 I-50.577 J-29.153
X-41.967 Y-143.233 I-117.648 J-34.662
G3 X-37.396 Y-147.07 I4.571 J0.805
G1 X114.199 Y-147.06
G3 X118.692 Y-143.23 J4.551
G2 X129.485 Y-113.121 I85.726 J-13.741
G1 X145.562 Y-85.47
G2 X163.211 Y-65.065 I62.082 J-35.864
X186.637 Y-51.684 I56.15 J-71.105
X194.941 Y-49.593 I12.622 J-32.587
X203.455 Y-48.683 I30.491 J-244.853
G3 X207.383 Y-44.387 I-0.384 J4.295
G1 X207.38 Y-2.467
G2 X211.398 Y3.561 I6.53 J0.001
G3 X215.416 Y9.59 I-2.512 J6.028
G1 X215.403 Y151.572
G3 X211.55 Y155.425 I-3.853
G1 X127.017 Y155.419
G3 X123.792 Y151.695 J-3.258
G2 X124.602 Y142.7 I-83.322 J-12.034
X123.698 Y133.714 I-33.195 J-1.199
X120.071 Y120.721 I-184.283 J44.438
X114.043 Y108.652 I-41.541 J13.206
X96.34 Y89.859 I-76.999 J54.8
X72.917 Y79 I-33.51 J41.589
X64.624 Y77.444 I-176.567 J918.114
X56.221 Y76.686 I-8.357 J45.675
G1 X19.885 Y76.722
G2 X-3.151 Y81.17 I0.062 J62.198
X-23.559 Y92.743 I32.276 J80.698
X-33.704 Y102.937 I32.013 J42.003
X-41.227 Y115.196 I59.893 J45.19
X-46.937 Y132.997 I58.544 J28.597
X-47.082 Y151.691 I58.332 J9.801
G3 X-50.277 Y155.408 I-3.194 J0.486
G1 X-211.358 Y155.398
G3 X-215.211 Y151.545 J-3.853
G1 X-215.203 Y69.894
G3 X-211.35 Y66.04 I3.854
G1 X-135.339 Y66.559
G2 X-109.427 Y60.842 I-0.059 J-61.849
X-88.157 Y44.977 I-27.035 J-58.434
X-77.509 Y28.644 I-50.758 J-44.73
X-72.943 Y9.69 I-45.253 J-20.927
X-72.941 Y-4.004 I-173.671 J-6.877
X-75.893 Y-17.376 I-38.622 J1.516
X-81.767 Y-29.966 I-155.991 J65.108
X-90.228 Y-40.984 I-34.984 J18.107
X-96.789 Y-46.809 I-234.478 J257.489
X-103.936 Y-51.896 I-30.307 J35.014
X-108.196 Y-54.182 I-38.701 J67.01
G3 X-112.455 Y-56.468 I34.441 J-69.296
X-112.21 Y-59.954 I0.972 J-1.683
G2 X-100.374 Y-65.291 I-59.733 J-148.266
X-89.668 Y-72.636 I-21.272 J-42.483
X-71.699 Y-95.665 I-58.157 J-63.904
G3 X-57.495 Y-121.189 I853.938 J458.508
G2 X-51.466 Y-135.721 I-52.719 J-30.388
X-49.281 Y-151.301 I-61.276 J-16.538
G3 X-45.417 Y-155.107 I3.864 J0.058
G1 X122.183 Y-155.097
G3 X125.986 Y-151.375 J3.804
G2 X127.971 Y-137.546 I57.844 J-1.245
X132.634 Y-124.376 I88.016 J-23.752
G1 X152.522 Y-89.49
G2 X168.437 Y-71.165 I55.276 J-31.932
X189.536 Y-59.169 I50.937 J-65.038
X200.484 Y-56.712 I13.669 J-35.291
X211.685 Y-56.055 I30.276 J-420.023
G3 X215.421 Y-52.145 I-0.177 J3.91
G1 X215.416 Y9.59
G2 X219.107 Y15.127 I5.999 J0.001
G3 X222.798 Y20.665 I-2.308 J5.537
G1 X222.785 Y159.032
G3 X219.009 Y162.808 I-3.776
G1 X118.237 Y162.802
G3 X115.233 Y159.296 J-3.04
X116.968 Y148.571 I821.359 J127.419
G2 X116.971 Y137.707 I-32.284 J-5.441
X102.939 Y106.041 I-68.835 J11.561
X74.097 Y86.865 I-43.728 J34.491
X47.088 Y83.648 I-24.006 J86.551
G3 X19.892 Y84.116 I-28.034 J-837.993
G2 X-0.782 Y88.174 I0.055 J54.973
X-19.077 Y98.623 I30.114 J73.966
X-27.988 Y107.626 I27.642 J36.268
X-34.583 Y118.441 I54.524 J40.671
X-39.79 Y133.536 I58.849 J28.747
X-40.262 Y149.497 I43.509 J9.273
X-39.363 Y154.375 I78.491 J-11.937
G3 X-38.465 Y159.253 I-77.593 J16.815
X-41.506 Y162.792 I-3.041 J0.463
G1 X-218.819 Y162.781
G3 X-222.594 Y159.005 J-3.776
G1 X-222.586 Y62.424
G3 X-218.82 Y58.658 I3.766
G1 X-135.346 Y59.165
G2 X-112.473 Y54.105 I-0.052 J-54.459
X-93.704 Y40.088 I-23.992 J-51.699
X-88.453 Y32.478 I-29.391 J-25.9
G1 X-84.168 Y24.285
G2 X-80.756 Y12.558 I-28.042 J-14.52
X-79.974 Y0.37 I-248.337 J-22.053
X-81.827 Y-11.62 I-31.62 J-1.252
X-86.223 Y-22.928 I-231.958 J83.672
X-93.003 Y-33.091 I-29.4 J12.271
X-101.825 Y-41.544 I-170.64 J169.246
X-107.513 Y-45.702 I-22.117 J24.287
G1 X-134.561 Y-60.709
G3 X-133.911 Y-63.509 I0.752 J-1.301
G2 X-122.151 Y-64.749 I-10.785 J-158.743
X-110.807 Y-68.087 I-5.836 J-40.77
X-82.934 Y-92.834 I-26.671 J-58.111
G1 X-73.313 Y-108.795
X-63.901 Y-124.881
G2 X-58.415 Y-138.195 I-47.36 J-27.299
X-56.45 Y-152.461 I-57.285 J-15.159
X-56.621 Y-155.614 I-22.781 J-0.344
G3 X-56.896 Y-158.759 I42.951 J-5.336
X-53.348 Y-162.491 I3.548 J-0.18
G1 X130.091 Y-162.479
G3 X133.643 Y-158.746 J3.557
G2 X133.357 Y-148.999 I240.679 J11.939
X134.922 Y-139.374 I28.774 J0.262
G1 X137.493 Y-131.904
G2 X140.984 Y-124.243 I41.434 J-14.258
G1 X162.436 Y-88.153
G2 X169.614 Y-79.914 I70.278 J-53.977
X178.115 Y-73.049 I34.444 J-33.962
X188.837 Y-67.398 I40.186 J-63.241
X200.47 Y-63.993 I20.005 J-46.777
X219.286 Y-63.743 I10.223 J-61.268
G3 X222.805 Y-60.67 I0.418 J3.073
G1 X222.798 Y20.665
G2 X226.063 Y25.564 I5.307
G3 X229.329 Y30.464 I-2.042 J4.899
G1 X229.317 Y165.488
G3 X225.463 Y169.341 I-3.853
G1 X108.618 Y169.333
G3 X106.461 Y165.998 J-2.365
G2 X110.518 Y152.695 I-50.281 J-22.606
X110.54 Y138.787 I-40.996 J-7.019
X98.094 Y110.406 I-62.531 J10.502
X72.354 Y93.149 I-38.904 J30.203
X46.212 Y90.11 I-22.807 J82.23
G3 X19.899 Y90.637 I-27.004 J-690.461
G2 X1.307 Y94.352 I0.049 J48.629
X-15.124 Y103.81 I28.262 J68.1
X-22.946 Y111.762 I23.81 J31.24
X-28.723 Y121.303 I49.904 J36.741
X-34.164 Y143.534 I48.335 J23.611
X-29.719 Y165.984 I52.159 J1.339
G3 X-31.894 Y169.325 I-2.175 J0.962
G1 X-225.274 Y169.313
G3 X-229.127 Y165.459 J-3.853
G1 X-229.117 Y54.684
G3 X-225.535 Y51.701 I3.033
G2 X-223.214 Y52.093 I14.661 J-79.719
X-220.867 Y52.273 I2.344 J-15.22
G1 X-135.352 Y52.644
G2 X-115.16 Y48.163 I-0.045 J-47.941
X-98.597 Y35.777 I-21.308 J-45.76
X-93.933 Y28.961 I-25.398 J-22.381
G1 X-89.959 Y21.287
G2 X-87.06 Y10.89 I-23.447 J-12.141
X-86.49 Y0.112 I-405.74 J-26.868
X-88.245 Y-10.466 I-26.445 J-1.047
X-92.241 Y-20.416 I-370.28 J142.93
X-98.335 Y-29.335 I-24.608 J10.271
X-106.216 Y-36.723 I-260.209 J269.703
X-110.775 Y-40.055 I-17.726 J19.465
G1 X-162.805 Y-70.043
G2 X-196.687 Y-68.373 I-15.447 J31.149
G3 X-225.76 Y-50.892 I-513.966 J-821.846
X-229.107 Y-52.824 I-1.116 J-1.932
G1 X-229.097 Y-165.181
G3 X-225.244 Y-169.034 I3.853
G1 X-187.267 Y-169.031
G3 X-185.111 Y-165.696 J2.365
G2 X-188.049 Y-159.078 I669.038 J300.976
X-190.767 Y-152.366 I118.383 J51.857
X-192.822 Y-142.149 I30.953 J11.539
G3 X-193.335 Y-131.74 I-565.326 J-22.638
G2 X-193.228 Y-127.191 I27.729 J1.622
X-192.432 Y-122.711 I32.274 J-3.419
X-186.673 Y-104.612 I148.166 J-37.182
X-176.733 Y-88.427 I49.317 J-19.145
X-168.228 Y-80.442 I50.759 J-45.541
X-158.221 Y-74.447 I28.217 J-35.743
X-127.374 Y-69.938 I23.688 J-54.297
X-99.034 Y-82.927 I-6.202 J-50.944
X-93.785 Y-88.462 I-34.921 J-38.371
X-89.119 Y-94.497 I-108.942 J-89.052
G1 X-69.551 Y-128.138
G2 X-62.774 Y-152.556 I-43.994 J-25.358
X-63.145 Y-159.036 I-44.983 J-0.679
X-64.012 Y-165.468 I-689.929 J89.714
G3 X-60.918 Y-169.023 I3.094 J-0.432
G1 X137.689 Y-169.011
G3 X140.741 Y-165.463 J3.088
G2 X139.543 Y-155.006 I146.134 J22.04
X140.25 Y-144.503 I36.161 J2.843
X142.433 Y-137.127 I50.174 J-10.839
X145.357 Y-130.012 I132.674 J-50.358
G1 X164.571 Y-96.451
G2 X177.488 Y-81.734 I43.42 J-25.083
X194.562 Y-72.145 I42.029 J-54.84
X205.089 Y-69.83 I12.765 J-32.957
X215.866 Y-69.681 I6.888 J-108.539
X220.889 Y-70.571 I-0.656 J-18.322
G3 X225.756 Y-72.096 I70.059 J215.078
X229.338 Y-69.433 I0.801 J2.663
G1 X229.329 Y30.464
G2 X233.368 Y36.523 I6.565 J0.001
G3 X237.407 Y42.583 I-2.525 J6.059
G1 X237.395 Y173.568
G3 X233.542 Y177.421 I-3.853
G1 X94.935 Y177.412
G3 X92.964 Y174.104 J-2.241
X97.92 Y165.898 I89.555 J48.485
G2 X101.359 Y156.95 I-17.966 J-12.039
X102.46 Y140.575 I-106.578 J-15.393
X98.143 Y124.74 I-32.279 J0.294
X87.195 Y110.431 I-60.243 J34.75
X71.643 Y101.336 I-24.966 J24.846
X64.033 Y99.485 I-32.821 J118.335
X56.243 Y98.68 I-7.753 J36.96
G1 X19.907 Y98.717
G2 X3.895 Y102.005 I0.041 J40.821
X-10.227 Y110.236 I26.079 J60.978
X-16.699 Y116.886 I19.105 J25.067
X-21.464 Y124.849 I44.441 J32
X-26.238 Y142.85 I43.146 J21.076
X-23.408 Y161.257 I43.23 J2.774
X-20.021 Y167.791 I31.553 J-12.209
G3 X-16.225 Y174.095 I-67.908 J45.19
X-18.195 Y177.405 I-1.97 J1.068
G1 X-233.355 Y177.391
G3 X-237.207 Y173.538 J-3.853
G1 X-237.195 Y44.324
G3 X-233.768 Y41.634 I2.77
X-227.403 Y43.433 I-21.955 J89.846
G2 X-220.868 Y44.457 I6.531 J-20.306
G1 X-180.415 Y43.99
G3 X-175.922 Y44.002 I2.174 J28.814
G2 X-149.053 Y45.066 I26.5 J-329.159
X-122.328 Y42.092 I-0.137 J-122.778
X-112.571 Y37.662 I-5.741 J-25.604
X-104.658 Y30.435 I-29.277 J-39.999
X-100.503 Y24.234 I-21.287 J-18.759
G3 X-97.134 Y17.571 I346.607 J171.069
G2 X-94.871 Y8.823 I-18.012 J-9.327
G3 X-94.563 Y-0.208 I817.528 J23.33
G2 X-96.197 Y-9.036 I-20.322 J-0.805
G3 X-99.697 Y-17.304 I814 J-349.478
G2 X-104.939 Y-24.682 I-18.936 J7.904
G1 X-111.655 Y-30.749
G2 X-114.815 Y-33.059 I-12.286 J13.492
G1 X-166.394 Y-62.805
G2 X-176.137 Y-65.283 I-10.646 J21.469
X-186.136 Y-64.253 I-1.356 J35.907
X-190.875 Y-62.342 I4.39 J17.712
G1 X-233.84 Y-36.893
G3 X-237.188 Y-38.825 I-1.116 J-1.932
G1 X-237.176 Y-173.261
G3 X-233.322 Y-177.114 I3.853
G1 X-172.39 Y-177.11
G3 X-170.86 Y-173.923 J1.961
G2 X-177.375 Y-163.679 I43.483 J34.843
X-182.181 Y-152.531 I108.551 J53.407
X-184.959 Y-126.522 I49.451 J18.435
X-179.949 Y-108.645 I70.663 J-10.161
X-169.97 Y-92.988 I52.345 J-22.355
X-162.255 Y-85.853 I42.033 J-37.712
X-152.89 Y-81.085 I17.622 J-23.029
X-136.243 Y-77.599 I29.442 J-99.117
X-119.433 Y-80.193 I3.846 J-30.839
X-105.387 Y-88.62 I-31.095 J-67.75
X-94.566 Y-100.917 I-25.123 J-33.016
G1 X-74.834 Y-135.932
G2 X-71.991 Y-144.111 I-74.641 J-30.532
X-70.714 Y-152.676 I-31.397 J-9.058
X-71.31 Y-161.421 I-52.764 J-0.796
X-73.486 Y-169.911 I-43.512 J6.63
X-74.355 Y-171.806 I-12.413 J4.541
G3 X-75.302 Y-173.664 I24.555 J-13.689
X-73.105 Y-177.104 I2.196 J-1.019
G1 X149.835 Y-177.09
G3 X152.044 Y-173.673 J2.422
G2 X149.419 Y-167.562 I173.542 J78.163
X147.975 Y-161.071 I18.261 J7.469
G1 X147.547 Y-152.451
G2 X148.728 Y-144.125 I22.178 J1.1
G3 X150.875 Y-137.718 I-392.221 J134.967
G2 X153.627 Y-131.546 I30.836 J-10.052
G1 X174.015 Y-97.047
G2 X179.469 Y-90.687 I61.715 J-47.4
X185.946 Y-85.373 I25.085 J-23.97
X209.842 Y-77.622 I26.972 J-42.446
X234.221 Y-83.685 I2.558 J-41.755
G3 X237.419 Y-81.892 I1.096 J1.793
G1 X237.407 Y42.583
G2 X241.232 Y48.322 I6.217 J0.001
G3 X245.058 Y54.061 I-2.392 J5.738
G1 X245.046 Y178.398
G3 X238.371 Y185.072 I-6.675 J-0.001
G1 X76.489 Y185.062
G3 X75.339 Y182.104 J-1.703
X81.292 Y177.147 I55.289 J60.344
G2 X86.341 Y171.272 I-11.005 J-14.567
G3 X90.74 Y163.892 I91.591 J49.588
G2 X93.775 Y155.855 I-16.654 J-10.881
G3 X95.045 Y148.313 I162.065 J23.408
G2 X94.867 Y140.666 I-17.732 J-3.413
G3 X93.084 Y133.018 I507.615 J-122.407
G2 X89.881 Y125.848 I-19.427 J4.377
X80.308 Y114.809 I-62.193 J44.263
X67.316 Y108.123 I-17.895 J18.806
G3 X61.826 Y106.968 I30.628 J-159.262
G2 X56.25 Y106.342 I-5.551 J24.298
G1 X19.914 Y106.379
G2 X6.35 Y109.263 I0.033 J33.49
X-5.582 Y116.33 I24.206 J54.482
X-10.775 Y121.746 I14.71 J19.301
X-14.579 Y128.213 I39.804 J27.769
X-17.947 Y151.287 I34.403 J16.805
X-8.63 Y172.664 I47.125 J-7.822
X-3.803 Y177.56 I22.6 J-17.455
G3 X1.369 Y182.089 I-45.186 J56.819
X0.172 Y185.057 I-1.197 J1.243
G1 X-240.411 Y184.51
G3 X-242.682 Y183.655 I0.298 J-4.231
X-244.093 Y181.681 I2.49 J-3.272
X-244.261 Y180.949 I3.715 J-1.237
X-244.327 Y180.201 I9.098 J-1.182
G1 X-244.845 Y29.822
G3 X-241.696 Y28.263 I1.961
X-237.094 Y31.978 I-63.532 J83.413
G2 X-231.798 Y34.613 I7.901 J-9.242
X-206.377 Y37.446 I26.161 J-119.265
X-180.823 Y36.347 I1.581 J-260.849
G3 X-175.476 Y36.36 I2.603 J28.198
G1 X-135.367 Y36.902
G2 X-121.646 Y33.82 I-0.031 J-32.215
X-110.407 Y25.369 I-14.834 J-31.428
X-106.826 Y19.907 I-17.304 J-15.248
G3 X-103.938 Y14.048 I149.381 J69.997
G2 X-102.278 Y6.863 I-13.197 J-6.834
G3 X-102.219 Y-0.511 I116.612 J-2.759
G2 X-103.738 Y-7.68 I-14.896 J-0.59
G3 X-106.768 Y-14.353 I106.615 J-52.436
G2 X-111.203 Y-20.269 I-13.906 J5.804
G3 X-116.814 Y-25.084 I78.754 J-97.459
G2 X-118.647 Y-26.424 I-7.127 J7.826
G1 X-169.799 Y-55.941
G2 X-176.968 Y-57.666 I-7.367 J14.857
X-184.293 Y-56.816 I-0.346 J29.008
X-187.042 Y-55.707 I2.546 J10.274
G1 X-237.771 Y-25.979
G2 X-239.877 Y-24.298 I4.523 J7.83
G3 X-241.789 Y-22.398 I-24.333 J-22.569
X-244.841 Y-23.741 I-1.231 J-1.343
G1 X-244.827 Y-178.091
G3 X-238.151 Y-184.765 I6.675 J0.001
G1 X-154.06 Y-184.76
G3 X-153.214 Y-181.97 J1.523
G2 X-164.11 Y-171.868 I26.064 J39.037
X-171.462 Y-158.955 I40.042 J31.348
G3 X-174.668 Y-151.65 I-87.482 J-34.03
G2 X-176.743 Y-143.946 I18.691 J9.167
G3 X-177.495 Y-135.796 I-189.338 J-13.346
G2 X-177.375 Y-127.612 I31.813 J3.626
X-173.007 Y-111.888 I63.224 J-9.092
X-164.267 Y-98.105 I45.47 J-19.172
X-158.158 Y-92.328 I38.18 J-34.255
X-150.708 Y-88.43 I13.68 J-17.077
G3 X-143.051 Y-86.068 I-109.067 J367.175
G2 X-135.084 Y-85.215 I6.057 J-18.931
X-122.941 Y-87.38 I-7.391 J-76.569
X-111.844 Y-92.765 I-8.082 J-30.783
X-105.922 Y-98.219 I-24.929 J-33.012
X-101.204 Y-104.744 I-29.175 J-26.06
G1 X-81.926 Y-138.833
G2 X-78.439 Y-152.974 I-46.162 J-18.883
X-80.294 Y-167.421 I-32.789 J-3.131
X-82.75 Y-172.718 I-32.9 J12.034
X-85.793 Y-177.701 I-82.554 J46.997
X-87.765 Y-179.866 I-7.707 J5.039
G3 X-89.979 Y-181.783 I22.022 J-27.659
X-88.799 Y-184.756 I1.179 J-1.252
G1 X165.519 Y-184.74
G3 X166.701 Y-181.766 J1.722
G1 X163.461 Y-178.71
G2 X160.785 Y-174.998 I8.321 J8.82
G3 X157.451 Y-168.103 I-221.81 J-103.018
G2 X155.498 Y-160.698 I16.544 J8.323
X155.846 Y-149.433 I69.989 J3.472
X158.79 Y-138.554 I36.801 J-4.118
G1 X178.201 Y-104.325
G2 X187.728 Y-93.689 I30.133 J-17.408
X200.247 Y-86.824 I32.097 J-43.68
X214.295 Y-85.419 I9.563 J-24.691
X228.037 Y-88.655 I-19.581 J-113.952
X235.949 Y-93.349 I-5.506 J-18.295
X242.074 Y-100.212 I-50.924 J-51.617
G1 X242.213 Y-100.405
X242.347 Y-100.602
G3 X245.072 Y-99.732 I1.223 J0.87
G1 X245.058 Y54.061
G3 X244.902 Y54.67 Z-25.33 I-1.27
X244.61 Y55.028 Z-24.865 I-1.114 J-0.609
G1 X244.474 Y55.13 Z-24.23
G0 Z11
X35.28 Y112.618
Z-12.481
G1 X35.144 Y112.529 Z-13.103 F6000
G3 X34.784 Y112.266 Z-13.566 I3.378 J-4.998
X34.321 Y111.86 Z-13.75 I3.738 J-4.735
X42.723 Y103.202 Z-14.412 I4.201 J-4.329
X34.321 Y111.86 Z-15.074 I-4.201 J4.329
X42.723 Y103.202 Z-15.735 I4.201 J-4.329
X34.321 Y111.86 Z-16.397 I-4.201 J4.329
X42.723 Y103.202 Z-17.059 I4.201 J-4.329
X34.321 Y111.86 Z-17.721 I-4.201 J4.329
X42.723 Y103.202 Z-18.383 I4.201 J-4.329
X34.321 Y111.86 Z-19.044 I-4.201 J4.329
X42.723 Y103.202 Z-19.706 I4.201 J-4.329
X34.321 Y111.86 Z-20.368 I-4.201 J4.329
X42.723 Y103.202 Z-21.03 I4.201 J-4.329
X34.321 Y111.86 Z-21.692 I-4.201 J4.329
X42.723 Y103.202 Z-22.353 I4.201 J-4.329
X34.321 Y111.86 Z-23.015 I-4.201 J4.329
X42.723 Y103.202 Z-23.677 I4.201 J-4.329
X34.321 Y111.86 Z-24.339 I-4.201 J4.329
X42.723 Y103.202 Z-25.001 I4.201 J-4.329
X38.528 Y113.563 Z-25.5 I-4.201 J4.329
G1 X19.922 Y113.582
G2 X19.402 Y113.623 I0.003 J3.382
G1 X16.976 Y114.002
X16.84 Y114.026
X9.957 Y115.392
G2 X9.447 Y115.536 I0.658 J3.317
G1 X8.36 Y115.936
G2 X8.042 Y116.072 I1.169 J3.174
G1 X7.318 Y116.426
G2 X6.955 Y116.633 I1.487 J3.038
G1 X-0.291 Y121.365
X-0.491 Y121.507
X-1.216 Y122.059
G2 X-1.761 Y122.58 I2.05 J2.69
G1 X-3.255 Y124.369
G2 X-3.434 Y124.603 I2.596 J2.168
G1 X-7.842 Y130.924
G2 X-8.107 Y131.374 I2.774 J1.935
G1 X-8.725 Y132.64
G2 X-8.978 Y133.348 I3.039 J1.484
G1 X-11.276 Y143.094
G2 X-11.365 Y143.767 I3.292 J0.776
G1 X-11.387 Y144.489
G2 X-11.35 Y145.101 I3.381 J0.103
G1 X-9.813 Y155.211
G2 X-9.623 Y155.923 I3.344 J-0.509
G1 X-9.295 Y156.772
G2 X-9.114 Y157.164 I3.154 J-1.221
G1 X-3.308 Y167.87
G2 X-3.011 Y168.325 I2.973 J-1.612
G1 X-2.308 Y169.235
G2 X-1.978 Y169.604 I2.677 J-2.067
G1 X6.82 Y178.077
G2 X7.329 Y178.48 I2.346 J-2.436
G1 X8.416 Y179.184
G2 X8.754 Y179.376 I1.838 J-2.839
G1 X19.622 Y184.749
G2 X20.13 Y184.951 I1.499 J-3.032
G1 X20.855 Y185.173
G2 X21.332 Y185.282 I0.991 J-3.234
G1 X33.77 Y187.194
G2 X34.285 Y187.234 I0.514 J-3.343
G1 X42.496 Y187.231
G2 X43.016 Y187.19 I-0.001 J-3.382
G1 X55.695 Y185.214
G2 X56.593 Y184.942 I-0.521 J-3.342
G1 X59.491 Y183.603
X59.592 Y183.554
X68.682 Y178.982
G2 X69.447 Y178.454 I-1.52 J-3.021
G1 X71.949 Y176.162
X72.022 Y176.093
X78.95 Y169.357
G2 X79.334 Y168.912 I-2.358 J-2.425
G1 X79.821 Y168.238
G2 X80.053 Y167.868 I-2.742 J-1.981
G1 X85.918 Y157.035
G2 X86.159 Y156.477 I-2.974 J-1.61
G1 X86.513 Y155.393
G2 X86.646 Y154.825 I-3.214 J-1.052
G1 X88.106 Y144.714
G2 X88.094 Y143.671 I-3.347 J-0.483
G1 X87.912 Y142.587
X87.865 Y142.355
X85.625 Y133.065
G2 X85.266 Y132.168 I-3.288 J0.793
G1 X84.187 Y130.296
G2 X84.013 Y130.025 I-2.93 J1.69
G1 X79.621 Y123.854
G2 X79.372 Y123.545 I-2.756 J1.961
G1 X78.369 Y122.436
G2 X77.777 Y121.919 I-2.507 J2.27
G1 X74.478 Y119.652
X74.387 Y119.592
X69.628 Y116.544
G2 X69.204 Y116.313 I-1.824 J2.848
G1 X68.166 Y115.841
G2 X67.67 Y115.661 I-1.4 J3.079
G1 X66.221 Y115.259
G2 X65.956 Y115.197 I-0.904 J3.259
G1 X58.711 Y113.803
G2 X58.438 Y113.762 I-0.639 J3.321
G1 X56.626 Y113.565
G2 X56.257 Y113.546 I-0.365 J3.362
G1 X38.528 Y113.563
G3 X37.919 Y113.409 Z-25.33 I-0.001 J-1.27
X37.56 Y113.117 Z-24.865 I0.608 J-1.115
G1 X37.459 Y112.981 Z-24.23
G0 Z11
X-192.168 Y-65.683
Z-13.25
G1 Z-24.23 F6000
X-191.99 Y-65.357 Z-25.128
X-191.561 Y-64.568 Z-25.5
G2 X-190.588 Y-63.365 I3.764 J-2.049
G1 X-182.622 Y-56.528
G3 X-183.364 Y-49.512 I-2.791 J3.252
G1 X-183.438 Y-49.47
X-234.35 Y-20.057
G2 X-234.943 Y-19.622 I1.692 J2.929
G1 X-241.66 Y-13.468
G2 X-242.085 Y-12.998 I2.285 J2.494
G1 X-242.591 Y-12.32
G2 X-243.002 Y-11.6 I2.71 J2.024
G1 X-246.452 Y-3.343
G2 X-246.595 Y-2.927 I3.121 J1.304
G1 X-246.897 Y-1.818
G2 X-247.013 Y-0.793 I3.263 J0.888
G1 X-246.631 Y8.596
G2 X-246.507 Y9.376 I3.379 J-0.137
G1 X-246.202 Y10.46
G2 X-245.942 Y11.114 I3.255 J-0.918
G1 X-241.627 Y19.336
G2 X-241.076 Y20.102 I2.995 J-1.572
G1 X-240.387 Y20.822
G2 X-239.993 Y21.174 I2.444 J-2.338
G1 X-232.702 Y26.728
G2 X-231.815 Y27.213 I2.049 J-2.691
G1 X-230.728 Y27.611
G2 X-230.29 Y27.739 I1.163 J-3.176
G1 X-221.596 Y29.646
G2 X-220.871 Y29.724 I0.725 J-3.304
G1 X-181.746 Y29.718
G2 X-180.777 Y29.576 I-0.001 J-3.382
G1 X-179.691 Y29.251
G2 X-178.806 Y28.84 I-0.969 J-3.24
G1 X-178.233 Y28.464
G2 X-177.821 Y28.707 I1.921 J-2.784
G1 X-176.735 Y29.249
G2 X-175.832 Y29.55 I1.509 J-3.027
G1 X-175.107 Y29.682
G2 X-174.498 Y29.736 I0.606 J-3.327
G1 X-135.374 Y29.699
G2 X-134.637 Y29.617 I-0.003 J-3.382
G1 X-125.58 Y27.587
G2 X-124.634 Y27.218 I-0.74 J-3.3
G1 X-123.547 Y26.593
G2 X-123.173 Y26.343 I-1.686 J-2.932
G1 X-116.288 Y21.052
G2 X-115.811 Y20.607 I-2.061 J-2.682
G1 X-115.2 Y19.913
G2 X-114.734 Y19.232 I-2.537 J-2.236
G1 X-110.335 Y10.736
G2 X-110.004 Y9.748 I-3.003 J-1.555
G1 X-109.82 Y8.665
G2 X-109.774 Y8.231 I-3.334 J-0.567
G1 X-109.417 Y-0.796
G2 X-109.513 Y-1.743 I-3.379 J-0.134
G1 X-109.748 Y-2.688
G2 X-109.909 Y-3.178 I-3.283 J0.813
G1 X-113.415 Y-11.578
G2 X-113.926 Y-12.426 I-3.121 J1.303
G1 X-114.713 Y-13.381
G2 X-115.046 Y-13.731 I-2.61 J2.15
G1 X-121.664 Y-19.758
G2 X-122.25 Y-20.186 I-2.277 J2.501
G1 X-172.81 Y-49.386
G2 X-173.508 Y-49.69 I-1.691 J2.929
G1 X-174.595 Y-50.024
G2 X-175.575 Y-50.173 I-0.994 J3.233
G1 X-180.647 Y-50.193
G2 X-181.473 Y-50.094 I-0.013 J3.382
G1 X-182.56 Y-49.824
G2 X-183.364 Y-49.512 I0.814 J3.283
G3 X-183.973 Y-49.357 Z-25.33 I-0.607 J-1.115
X-184.427 Y-49.442 Z-24.865 I0.002 J-1.27
G1 X-184.582 Y-49.514 Z-24.23
G0 Z11
X-187.534 Y-146.588
Z-13.25
G1 Z-24.23 F6000
X-187.167 Y-146.53 Z-25.128
X-186.28 Y-146.389 Z-25.5
G2 X-184.749 Y-146.426 I0.664 J-4.189
G1 X-174.579 Y-148.548
G3 X-169.524 Y-143.732 I0.866 J4.152
G2 X-169.558 Y-143.44 I3.34 J0.53
G1 X-170.194 Y-134.412
X-170.429 Y-130.4
G2 X-170.4 Y-129.721 I3.376 J0.198
G1 X-170.245 Y-128.638
G2 X-170.177 Y-128.296 I3.348 J-0.481
G1 X-167.187 Y-116.38
G2 X-166.895 Y-115.618 I3.28 J-0.823
G1 X-165.991 Y-113.914
X-165.88 Y-113.72
X-160.014 Y-104.231
G2 X-159.654 Y-103.75 I2.877 J-1.778
G1 X-158.906 Y-102.916
G2 X-158.486 Y-102.522 I2.517 J-2.259
G1 X-150.583 Y-96.269
G2 X-149.837 Y-95.822 I2.098 J-2.652
G1 X-149.046 Y-95.477
G2 X-148.657 Y-95.335 I1.352 J-3.1
G1 X-139.238 Y-92.537
G2 X-138.319 Y-92.397 I0.963 J-3.242
G1 X-136.145 Y-92.369
G2 X-135.776 Y-92.385 I0.044 J-3.382
G1 X-128.019 Y-93.133
G2 X-127.637 Y-93.192 I-0.325 J-3.366
G1 X-126.338 Y-93.47
G2 X-125.634 Y-93.704 I-0.707 J-3.307
G1 X-123.098 Y-94.867
X-122.948 Y-94.941
X-116.662 Y-98.212
G2 X-116.185 Y-98.514 I-1.561 J-3
G1 X-115.205 Y-99.253
G2 X-114.967 Y-99.451 I-2.038 J-2.699
G1 X-114.477 Y-99.897
G2 X-114.201 Y-100.179 I-2.276 J-2.501
G1 X-109.178 Y-105.956
G2 X-109 Y-106.18 I-2.552 J-2.219
G1 X-107.645 Y-108.035
G2 X-107.445 Y-108.341 I-2.731 J-1.995
G1 X-89.429 Y-139.596
G2 X-89.229 Y-140.004 I-2.93 J-1.689
G1 X-88.593 Y-141.56
X-88.525 Y-141.74
X-86.04 Y-148.962
G2 X-85.908 Y-149.47 I-3.198 J-1.1
G1 X-85.651 Y-150.915
G2 X-85.6 Y-151.456 I-3.33 J-0.592
G1 X-85.578 Y-152.9
X-85.582 Y-153.123
X-85.948 Y-160.344
G2 X-85.971 Y-160.605 I-3.378 J0.171
G1 X-86.194 Y-162.336
G2 X-86.372 Y-163.067 I-3.355 J0.431
G1 X-87.059 Y-164.946
G2 X-87.167 Y-165.208 I-3.176 J1.162
G1 X-90.375 Y-172.122
G2 X-90.612 Y-172.549 I-3.068 J1.423
G1 X-91.529 Y-173.951
G2 X-92.042 Y-174.563 I-2.831 J1.851
G1 X-99.368 Y-181.461
G2 X-100.112 Y-181.991 I-2.318 J2.462
G1 X-101.199 Y-182.563
G2 X-101.546 Y-182.721 I-1.574 J2.993
G1 X-110.603 Y-186.247
G2 X-111.385 Y-186.448 I-1.227 J3.152
G1 X-112.471 Y-186.593
G2 X-112.834 Y-186.621 I-0.445 J3.353
G1 X-125.153 Y-186.92
G2 X-125.934 Y-186.848 I-0.082 J3.381
G1 X-127.145 Y-186.593
X-127.383 Y-186.533
X-138.71 Y-183.266
G2 X-139.229 Y-183.069 I0.937 J3.25
G1 X-140.149 Y-182.63
G2 X-140.571 Y-182.39 I1.457 J3.052
G1 X-150.971 Y-175.447
G2 X-151.573 Y-174.933 I1.878 J2.813
G1 X-152.412 Y-174.027
X-152.571 Y-173.843
X-160.094 Y-164.455
G2 X-160.389 Y-164.022 I2.639 J2.115
G1 X-164.53 Y-156.801
G2 X-164.749 Y-156.344 I2.934 J1.683
G1 X-168.235 Y-147.383
X-169.353 Y-144.383
G2 X-169.524 Y-143.732 I3.169 J1.181
G3 X-169.773 Y-143.155 Z-25.33 I-1.254 J-0.199
X-170.118 Y-142.846 Z-24.865 I-1.005 J-0.776
G1 X-170.268 Y-142.768 Z-24.23
G0 Z11
X234.837 Y-179.457
Z-12.481
G1 X234.816 Y-179.618 Z-13.103 F6000
G3 X234.778 Y-180.063 Z-13.566 I5.989 J-0.726
X234.781 Y-180.679 Z-13.75 I6.026 J-0.28
X246.828 Y-180.008 Z-14.412 I6.023 J0.335
X234.781 Y-180.679 Z-15.074 I-6.023 J-0.335
X246.828 Y-180.008 Z-15.735 I6.023 J0.335
X234.781 Y-180.679 Z-16.397 I-6.023 J-0.335
X246.828 Y-180.008 Z-17.059 I6.023 J0.335
X234.781 Y-180.679 Z-17.721 I-6.023 J-0.335
X246.828 Y-180.008 Z-18.383 I6.023 J0.335
X234.781 Y-180.679 Z-19.044 I-6.023 J-0.335
X246.828 Y-180.008 Z-19.706 I6.023 J0.335
X234.781 Y-180.679 Z-20.368 I-6.023 J-0.335
X246.828 Y-180.008 Z-21.03 I6.023 J0.335
X234.781 Y-180.679 Z-21.692 I-6.023 J-0.335
X246.828 Y-180.008 Z-22.353 I6.023 J0.335
X234.781 Y-180.679 Z-23.015 I-6.023 J-0.335
X246.828 Y-180.008 Z-23.677 I6.023 J0.335
X234.781 Y-180.679 Z-24.339 I-6.023 J-0.335
X246.828 Y-180.008 Z-25.001 I6.023 J0.335
X236.253 Y-176.385 Z-25.5 I-6.023 J-0.335
G2 X230.735 Y-181.5 I-26.49 J23.039
X230.385 Y-181.732 I-2.295 J3.081
G3 X230.028 Y-181.954 I4.187 J-7.131
X230.861 Y-184.736 I0.833 J-1.266
X235.757 Y-184.668 I-0.011 J178.254
X240.647 Y-184.429 I-3.143 J114.125
X243.003 Y-183.5 I-0.296 J4.203
X244.444 Y-181.418 I-2.841 J3.508
X244.643 Y-180.67 I-5.921 J1.971
X244.737 Y-179.903 I-5.06 J1.012
X244.972 Y-174.445 I-641.356 J30.363
X245.078 Y-168.984 I-140.357 J5.449
X242.376 Y-168.168 I-1.474
G2 X237.13 Y-175.335 I-82.151 J54.626
X236.253 Y-176.385 I-27.367 J21.99
X229.72 Y-177.927 I-4.34 J3.774
G3 X223.039 Y-178.566 I-2.737 J-6.637
G1 X216.791 Y-182.674
G2 X215.939 Y-183.077 I-1.858 J2.826
G1 X212.678 Y-184.093
X212.584 Y-184.121
X203.166 Y-186.76
G2 X202.329 Y-186.884 I-0.912 J3.257
G1 X200.155 Y-186.933
X199.97 Y-186.932
X189.033 Y-186.576
G2 X188.367 Y-186.488 I0.11 J3.38
G1 X187.349 Y-186.248
G2 X186.884 Y-186.102 I0.776 J3.292
G1 X177.828 Y-182.532
G2 X177.267 Y-182.248 I1.24 J3.146
G1 X176.542 Y-181.792
G2 X176.023 Y-181.389 I1.802 J2.862
G1 X168.778 Y-174.554
G2 X168.263 Y-173.937 I2.321 J2.46
G1 X167.321 Y-172.488
G2 X167.089 Y-172.07 I2.836 J1.843
G1 X165.133 Y-167.858
X163.598 Y-164.451
G2 X163.45 Y-164.058 I3.084 J1.389
G1 X163.005 Y-162.614
G2 X162.877 Y-162.006 I3.232 J0.996
G1 X162.71 Y-160.561
X162.692 Y-160.341
X162.298 Y-152.397
G2 X162.312 Y-151.878 I3.378 J0.168
G1 X162.463 Y-150.434
G2 X162.521 Y-150.071 I3.364 J-0.351
G1 X162.677 Y-149.348
G2 X162.785 Y-148.962 I3.306 J-0.714
G1 X165.27 Y-141.74
G2 X165.376 Y-141.471 I3.198 J-1.1
G1 X166.335 Y-139.304
G2 X166.499 Y-138.982 I3.092 J-1.37
G1 X184.439 Y-107.928
G2 X184.685 Y-107.56 I2.929 J-1.692
G1 X185.805 Y-106.102
X185.935 Y-105.943
X190.946 Y-100.179
G2 X191.241 Y-99.879 I2.552 J-2.219
G1 X192.026 Y-99.176
G2 X192.469 Y-98.84 I2.257 J-2.519
G1 X193.919 Y-97.919
G2 X194.209 Y-97.754 I1.814 J-2.855
G1 X201.454 Y-94.098
G2 X201.756 Y-93.964 I1.524 J-3.019
G1 X202.849 Y-93.541
G2 X203.514 Y-93.358 I1.222 J-3.154
G1 X205.319 Y-93.057
G2 X205.575 Y-93.025 I0.557 J-3.336
G1 X213.182 Y-92.344
G2 X213.604 Y-92.333 I0.301 J-3.369
G1 X215.053 Y-92.385
G2 X215.907 Y-92.526 I-0.121 J-3.38
G1 X225.961 Y-95.552
G2 X226.94 Y-96.03 I-0.975 J-3.239
G1 X228.116 Y-96.862
X228.272 Y-96.98
X235.369 Y-102.643
G2 X235.92 Y-103.199 I-2.11 J-2.643
G1 X236.814 Y-104.339
G2 X237.036 Y-104.658 I-2.661 J-2.087
G1 X243.201 Y-114.713
G2 X243.433 Y-115.162 I-2.883 J-1.768
G1 X243.874 Y-116.205
G2 X244.043 Y-116.714 I-3.115 J-1.318
G1 X247.04 Y-128.876
G2 X247.138 Y-129.71 I-3.284 J-0.809
G1 X247.126 Y-131.31
X247.119 Y-131.504
X246.371 Y-143.059
G2 X246.291 Y-143.605 I-3.375 J0.219
G1 X246.123 Y-144.328
G2 X245.98 Y-144.789 I-3.295 J0.765
G1 X241.414 Y-156.524
G2 X241.184 Y-157.001 I-3.152 J1.226
G1 X236.927 Y-164.305
G2 X236.639 Y-164.723 I-2.922 J1.703
G1 X228.797 Y-174.459
G2 X228.183 Y-175.05 I-2.634 J2.122
G1 X226.734 Y-176.129
X226.572 Y-176.243
X223.039 Y-178.566
G3 X223.23 Y-179.57 I0.304 J-0.462
G1 X225.608 Y-180.061
X244.428 Y-181.286
X246.205 Y-181.884
G3 X246.706 Y-181.601 I0.125 J0.363
X234.905 Y-179.088 Z-26.162 I-5.9 J1.257
X246.706 Y-181.601 Z-26.824 I5.9 J-1.257
X234.905 Y-179.088 Z-27.485 I-5.9 J1.257
X246.706 Y-181.601 Z-28.147 I5.9 J-1.257
X234.905 Y-179.088 Z-28.809 I-5.9 J1.257
X246.706 Y-181.601 Z-29.471 I5.9 J-1.257
X234.905 Y-179.088 Z-30.133 I-5.9 J1.257
X246.706 Y-181.601 Z-30.794 I5.9 J-1.257
X236.253 Y-176.386 Z-31.35 I-5.9 J1.257
G2 X230.726 Y-181.506 I-26.375 J22.932
X230.385 Y-181.732 I-2.269 J3.054
G3 X230.038 Y-181.949 I3.8 J-6.461
X230.879 Y-184.736 I0.841 J-1.267
X235.766 Y-184.668 I-0.011 J177.925
X240.647 Y-184.429 I-3.137 J113.914
X243.003 Y-183.5 I-0.296 J4.202
X244.444 Y-181.418 I-2.843 J3.509
X244.643 Y-180.67 I-5.921 J1.971
X244.737 Y-179.903 I-5.06 J1.012
X244.972 Y-174.445 I-641.356 J30.363
X245.078 Y-168.984 I-140.357 J5.449
X242.376 Y-168.168 I-1.474
G2 X237.127 Y-175.34 I-82.392 J54.787
X236.253 Y-176.386 I-27.249 J21.886
G3 X235.992 Y-176.958 Z-31.18 I0.989 J-0.797
X235.995 Y-177.42 Z-30.715 I1.25 J-0.225
G1 X236.038 Y-177.585 Z-30.08
G0 Z11
X35.806 Y-41.059
Z-18.118
G1 X35.954 Y-41.126 Z-18.74 F6000
G3 X36.37 Y-41.29 Z-19.203 I2.421 J5.525
X36.96 Y-41.465 Z-19.387 I2.006 J5.689
X39.791 Y-29.737 Z-20.049 I1.415 J5.864
X36.96 Y-41.465 Z-20.711 I-1.415 J-5.864
X39.791 Y-29.737 Z-21.373 I1.415 J5.864
X36.96 Y-41.465 Z-22.035 I-1.415 J-5.864
X39.791 Y-29.737 Z-22.696 I1.415 J5.864
X36.96 Y-41.465 Z-23.358 I-1.415 J-5.864
X39.791 Y-29.737 Z-24.02 I1.415 J5.864
X36.96 Y-41.465 Z-24.682 I-1.415 J-5.864
X39.791 Y-29.737 Z-25.344 I1.415 J5.864
X36.96 Y-41.465 Z-26.005 I-1.415 J-5.864
X39.791 Y-29.737 Z-26.667 I1.415 J5.864
X36.96 Y-41.465 Z-27.329 I-1.415 J-5.864
X39.791 Y-29.737 Z-27.991 I1.415 J5.864
X36.96 Y-41.465 Z-28.653 I-1.415 J-5.864
X39.791 Y-29.737 Z-29.314 I1.415 J5.864
X36.96 Y-41.465 Z-29.976 I-1.415 J-5.864
X39.791 Y-29.737 Z-30.638 I1.415 J5.864
X32.385 Y-34.889 Z-30.994 I-1.415 J-5.864
X38.376 Y-41.634 Z-31.35 I5.99 J-0.713
G1 X48.534 Y-41.633
G3 X50.364 Y-40.577 J2.114
G1 X50.938 Y-39.583
G3 X49.006 Y-36.232 I-1.934 J1.117
G1 X37.915 Y-36.221
G3 X35.861 Y-37.827 I-0.002 J-2.114
G1 X35.568 Y-39.007
G3 X37.619 Y-41.634 I2.051 J-0.512
G1 X38.376
G2 X42.589 Y-44.442 J-4.563
G3 X46.801 Y-47.25 I4.212 J1.755
G1 X49.065
G3 X54.962 Y-43.846 J6.811
G1 X59.603 Y-35.812
G2 X60.761 Y-33.843 I127.764 J-73.808
G3 X58.884 Y-30.6 I-1.839 J1.1
G2 X47.384 Y-30.655 I-7.884 J443.331
G1 X35.885 Y-30.602
G3 X30.867 Y-34.576 I-0.005 J-5.148
G2 X28.471 Y-43.691 I-170.016 J39.818
G3 X31.131 Y-47.251 I2.66 J-0.786
G1 X46.801 Y-47.25
G2 X51.919 Y-51.16 J-5.304
G3 X58.065 Y-53.085 I3.689 J1.005
X59.965 Y-50.823 I-5.461 J6.514
G1 X67.562 Y-37.782
G2 X75.956 Y-25.238 I111.268 J-65.372
X76.265 Y-24.856 I6.264 J-4.744
G3 X76.574 Y-24.473 I-5.955 J5.127
X74.914 Y-21.586 I-1.442 J1.092
G1 X65.543 Y-22.751
G2 X56.117 Y-23.344 I-9.349 J73.423
G1 X29.288 Y-22.774
G3 X24.533 Y-26.715 I-0.005 J-4.833
G2 X18.165 Y-49.959 I-144.926 J27.211
G3 X21.737 Y-55.073 I3.572 J-1.309
G1 X52.605 Y-55.071
G3 X58.065 Y-53.085 I-0.001 J8.5
G2 X63.817 Y-51.422 I4.757 J-5.675
G3 X69.13 Y-48.66 I0.698 J5.148
G2 X72.182 Y-43.079 I120.884 J-62.489
X82.872 Y-27.704 I96.975 J-56.021
X95.143 Y-13.56 I309.358 J-255.975
G3 X93.642 Y-10.965 I-1.164 J1.058
G1 X82.707 Y-13.358
G2 X70.634 Y-15.329 I-24.409 J111.533
X56.125 Y-16.108 I-14.373 J132.257
G1 X22.898 Y-15.531
G3 X18.397 Y-19.437 I-0.005 J-4.54
G2 X10.961 Y-48.569 I-135.882 J19.168
G3 X11.594 Y-56.322 I8.518 J-3.208
G1 X12.597 Y-58.063
G3 X19.947 Y-62.31 I7.349 J4.236
G1 X56.782 Y-62.308
G3 X64.142 Y-58.059 I-0.001 J8.5
X68.162 Y-50.569 I-117.832 J68.07
G2 X69.13 Y-48.66 I121.853 J-60.58
X74.478 Y-45.776 I4.786 J-2.474
G3 X79.928 Y-43.09 I0.595 J5.666
G2 X99.921 Y-17.478 I123.548 J-75.836
X128.138 Y5.405 I113.81 J-111.493
G3 X126.565 Y8.12 I-0.844 J1.324
G2 X99.029 Y-2.949 I-68.482 J130.568
X69.913 Y-8.695 I-47.655 J164.844
X56.132 Y-9.435 I-13.653 J125.623
G1 X16.648 Y-8.812
G3 X12.489 Y-12.506 I-0.106 J-4.069
G2 X3.995 Y-48.087 I-128.507 J11.874
G3 X4.704 Y-57.733 I10.352 J-4.088
G1 X8.742 Y-64.737
G3 X16.091 Y-68.983 I7.349 J4.236
G1 X60.634 Y-68.98
G3 X67.993 Y-64.732 I-0.001 J8.5
X72.972 Y-55.572 I-173.365 J100.15
G2 X77.95 Y-46.411 I178.344 J-90.99
X79.928 Y-43.09 I125.526 J-72.515
X86.724 Y-40.024 I5.656 J-3.472
G3 X93.648 Y-37.261 I1.22 J7
G2 X106.089 Y-22.743 I110.32 J-81.948
X133.276 Y-0.938 I106.602 J-105.064
G3 X137.403 Y6.515 I-4.665 J7.452
G1 X137.402 Y20.199
G3 X134.1 Y22.009 I-2.147
G2 X118.675 Y13 I-121.717 J190.701
X102.199 Y6.098 I-45.48 J85.452
X79.453 Y0.624 I-51.479 J163.917
X56.14 Y-1.327 I-23.172 J136.603
G1 X19.798 Y-1.096
G2 X14.217 Y-0.784 I0.052 J50.98
G3 X8.657 Y-0.207 I-41.442 J-372.753
X4.886 Y-3.557 I-0.329 J-3.426
G2 X-4.359 Y-47.233 I-120.492 J2.69
X-4.658 Y-47.89 I-10.66 J4.449
G3 X-4.957 Y-48.548 I10.361 J-5.107
X-4.335 Y-58.284 I10.157 J-4.239
G1 X4.057 Y-72.844
G3 X11.407 Y-77.091 I7.349 J4.236
G1 X65.313 Y-77.087
G3 X72.673 Y-72.839 I-0.001 J8.5
G1 X84.97 Y-50.467
G2 X93.648 Y-37.261 I118.998 J-68.743
X100.484 Y-34.87 I5.184 J-3.85
G3 X107.417 Y-32.775 I1.767 J6.674
G2 X141.203 Y-5.403 I99.287 J-88.015
G3 X145.308 Y1.675 I-4.049 J7.077
G1 X145.305 Y35.545
G3 X142.11 Y37.134 I-1.993
G2 X121.276 Y23.278 I-124.35 J164.376
X98.381 Y13.184 I-56.753 J97.716
X59.345 Y6.894 I-41.122 J130.938
G1 X19.806 Y6.614
G2 X10.033 Y7.343 I0.068 J66.811
G1 X0.346 Y8.83
G3 X-3.165 Y5.708 I-0.475 J-3.002
G2 X-3.334 Y-11.442 I-173.403 J-6.867
X-5.915 Y-28.398 I-93.467 J5.549
X-9.444 Y-38.913 I-66.459 J16.456
G1 X-13.764 Y-49.128
G3 X-13.145 Y-58.829 I10.121 J-4.224
G1 X-0.51 Y-80.749
G3 X6.84 Y-84.995 I7.349 J4.236
G1 X69.876 Y-84.991
G3 X77.235 Y-80.743 I-0.001 J8.5
G1 X91.815 Y-54.42
G2 X107.417 Y-32.775 I114.89 J-66.37
X114.221 Y-31.047 I4.674 J-4.143
G3 X121.097 Y-29.632 I2.287 J6.302
G2 X148.746 Y-9.98 I85.601 J-91.155
G3 X152.937 Y-3.089 I-3.568 J6.889
G1 X152.932 Y53.092
G3 X149.911 Y54.299 I-1.751
G2 X112.139 Y27.23 I-89.716 J85.303
X67.359 Y14.807 I-60.309 J130.47
G1 X19.814 Y14.243
G2 X5.88 Y15.522 I0.079 J77.408
X-7.862 Y18.156 I171.926 J934.048
G3 X-11.222 Y15.199 I-0.551 J-2.762
G2 X-10.637 Y-5.765 I-251.095 J-17.492
X-13.32 Y-26.565 I-91.798 J1.266
X-17.412 Y-38.505 I-70.097 J17.357
G3 X-22.431 Y-50.085 I658.185 J-292.139
X-21.884 Y-58.942 I9.17 J-3.879
G1 X-4.895 Y-88.417
G3 X2.386 Y-92.624 I7.281 J4.197
G1 X74.366 Y-92.62
G3 X81.595 Y-88.447 I-0.001 J8.349
G1 X98.42 Y-58.236
G2 X121.097 Y-29.632 I108.278 J-62.551
X127.484 Y-28.527 I4.032 J-4.293
G3 X133.91 Y-27.684 I2.513 J5.761
G2 X142.724 Y-21.631 I47.321 J-59.459
X156.001 Y-14.33 I133.977 J-227.931
G3 X160.12 Y-7.585 I-3.46 J6.744
G1 X160.113 Y73.884
G3 X157.232 Y74.805 I-1.588
X152.42 Y67.884 I298.091 J-212.348
G2 X147.243 Y61.232 I-53.335 J36.172
X110.567 Y34.087 I-83.023 J73.827
X66.583 Y21.948 I-59.357 J129.314
G1 X19.821 Y21.426
G2 X1.307 Y23.226 I0.099 J97.136
X-16.74 Y27.728 I34.525 J176.841
G3 X-19.691 Y25.131 I-0.674 J-2.209
G2 X-17.412 Y0.115 I-159.137 J-27.104
X-20.292 Y-24.838 I-98.51 J-1.275
X-24.839 Y-38.156 I-79.28 J19.631
X-30.691 Y-50.954 I-472.214 J208.188
G3 X-30.188 Y-59.097 I7.631 J-3.616
G2 X-19.293 Y-77.239 I-356.416 J-226.385
G1 X-9 Y-95.729
G3 X-2.122 Y-99.808 I6.878 J3.759
G1 X78.921 Y-99.803
G3 X85.739 Y-95.725 J7.739
G2 X105.284 Y-61.204 I783.747 J-420.945
X130.491 Y-30.573 I113.193 J-67.463
X133.91 Y-27.684 I50.74 J-56.57
X140.133 Y-27.195 I3.474 J-4.364
G3 X146.372 Y-26.97 I2.936 J5.182
G2 X154.179 Y-22.58 I32.998 J-49.542
G1 X162.755 Y-18.574
G3 X166.92 Y-12.032 I-3.056 J6.542
G1 X166.909 Y100.831
G3 X164.316 Y101.326 I-1.344
G2 X140.154 Y63.972 I-105.819 J41.956
X103.829 Y38.29 I-86.949 J84.449
X62.374 Y28.705 I-43.936 J95.584
G1 X41.102 Y28.334
X19.828 Y28.225
G2 X-4.163 Y31.027 I0.107 J105.002
X-27.019 Y38.841 I28.372 J120.324
G3 X-29.514 Y36.609 I-0.758 J-1.664
G2 X-23.996 Y6.887 I-108.596 J-35.533
X-26.892 Y-23.204 I-103.197 J-5.255
X-31.909 Y-37.829 I-85.615 J21.199
X-38.687 Y-51.727 I-199.011 J88.457
G3 X-38.218 Y-59.314 I6.409 J-3.412
G2 X-24.815 Y-80.438 I-216.648 J-152.273
X-13.121 Y-102.554 I-342.345 J-195.166
G3 X-6.63 Y-106.607 I6.491 J3.173
G1 X83.434 Y-106.601
G3 X89.907 Y-102.527 J7.18
X91.333 Y-99.46 I-126.728 J60.794
G2 X92.875 Y-96.451 I30.656 J-13.809
G1 X110.527 Y-65.23
G2 X146.031 Y-27.199 I100.007 J-57.773
X146.372 Y-26.97 I33.339 J-49.313
X152.773 Y-27.117 I3.096 J-4.648
G3 X159.146 Y-27.741 I3.712 J5.055
G1 X169.761 Y-22.82
G3 X173.715 Y-16.655 I-2.828 J6.164
G1 X173.704 Y109.943
G3 X169.927 Y113.719 I-3.776
G1 X165.387
G3 X160.109 Y109.824 J-5.524
G2 X137.517 Y70.844 I-96.112 J29.668
X100.987 Y44.474 I-85.234 J79.586
X60.922 Y35.354 I-41.74 J90.805
G1 X19.835 Y35.031
G2 X-28.095 Y46.312 I0.11 J107.929
X-35.633 Y50.838 I24.322 J49.046
G3 X-42.842 Y55.873 I-224.195 J-313.284
X-44.902 Y54.047 I-0.8 J-1.173
X-42.861 Y50.389 I59.545 J30.833
G2 X-40.819 Y46.731 I-57.504 J-34.491
X-30.94 Y13.248 I-81.703 J-42.306
X-33.498 Y-21.568 I-103.067 J-9.929
X-39.051 Y-37.552 I-89.745 J22.222
X-46.951 Y-52.515 I-128.948 J58.515
G3 X-46.617 Y-59.305 I5.186 J-3.148
G2 X-30.532 Y-83.463 I-205.39 J-154.188
X-17.47 Y-109.381 I-195.424 J-114.735
G3 X-11.386 Y-113.402 I6.083 J2.592
G1 X88.107 Y-113.396
G3 X94.218 Y-109.442 J6.701
X96.314 Y-104.56 I-142.352 J63.997
G2 X98.655 Y-99.79 I36.348 J-14.875
G1 X119.777 Y-63.978
G2 X148.394 Y-33.817 I82.649 J-49.761
X158.852 Y-27.879 I43.168 J-63.851
G1 X159.146 Y-27.741
G3 X159.617 Y-27.325 Z-31.18 I-0.58 J1.13
X159.803 Y-26.902 Z-30.715 I-1.051 J0.714
G1 X159.83 Y-26.734 Z-30.08
G0 Z11
X-93.136 Y105.866
Z-18.118
G1 X-93.027 Y105.745 Z-18.74 F6000
G3 X-92.714 Y105.427 Z-19.203 I4.446 J4.077
X-92.244 Y105.029 Z-19.387 I4.132 J4.395
X-84.919 Y114.616 Z-20.049 I3.662 J4.793
X-92.244 Y105.029 Z-20.711 I-3.662 J-4.793
X-84.919 Y114.616 Z-21.373 I3.662 J4.793
X-92.244 Y105.029 Z-22.035 I-3.662 J-4.793
X-84.919 Y114.616 Z-22.696 I3.662 J4.793
X-92.244 Y105.029 Z-23.358 I-3.662 J-4.793
X-84.919 Y114.616 Z-24.02 I3.662 J4.793
X-92.244 Y105.029 Z-24.682 I-3.662 J-4.793
X-84.919 Y114.616 Z-25.344 I3.662 J4.793
X-92.244 Y105.029 Z-26.005 I-3.662 J-4.793
X-84.919 Y114.616 Z-26.667 I3.662 J4.793
X-92.244 Y105.029 Z-27.329 I-3.662 J-4.793
X-84.919 Y114.616 Z-27.991 I3.662 J4.793
X-92.244 Y105.029 Z-28.653 I-3.662 J-4.793
X-84.919 Y114.616 Z-29.314 I3.662 J4.793
X-92.244 Y105.029 Z-29.976 I-3.662 J-4.793
X-84.919 Y114.616 Z-30.638 I3.662 J4.793
X-93.774 Y112.893 Z-30.994 I-3.662 J-4.793
X-91.017 Y104.303 Z-31.35 I5.193 J-3.07
G2 X-90.659 Y104.144 I-35.304 J-80.017
G3 X-88.531 Y106.081 I0.64 J1.434
G1 X-88.695 Y106.571
G3 X-90.185 Y107.646 I-1.49 J-0.495
G1 X-92.2
G3 X-92.722 Y105.034 J-1.358
G2 X-91.017 Y104.303 I-33.599 J-80.747
X-88.141 Y99.736 I-1.948 J-4.415
G3 X-85.482 Y95.039 I5.187 J-0.164
G2 X-84.503 Y94.485 I-41.491 J-74.403
X-80.751 Y92.024 I-19.092 J-33.198
G1 X-76.676 Y88.995
G3 X-74.745 Y90.735 I0.791 J1.064
G2 X-78.714 Y97.944 I112.682 J66.749
X-82.035 Y105.473 I64.86 J33.106
X-82.735 Y107.63 I23.55 J8.834
G3 X-83.375 Y109.807 I-63.289 J-17.425
X-88.677 Y113.703 I-5.302 J-1.659
G1 X-170.079 Y113.698
G3 Y107.73 J-2.984
X-143.725 Y108.449 I0.141 J478.229
G2 X-117.451 Y106.266 I5.264 J-95.886
X-100.532 Y101.619 I-40.415 J-180.249
X-85.482 Y95.039 I-26.441 J-80.983
X-83.116 Y90.275 I-2.29 J-4.107
G3 X-80.957 Y85.413 I4.97 J-0.702
G2 X-73.713 Y80.122 I-68.559 J-101.461
X-60.775 Y67.874 I-61.039 J-77.439
X-38.304 Y20.828 I-71.578 J-63.076
X-54.477 Y-53.066 I-99.542 J-16.93
G3 X-54.161 Y-59.496 I4.362 J-3.008
G2 X-39.445 Y-80.851 I-100.507 J-85.008
G1 X-26.698 Y-103.437
G2 X-23.874 Y-109.32 I-37.581 J-21.662
G1 X-21.492 Y-115.419
G3 X-15.63 Y-119.423 I5.862 J2.289
G1 X92.373 Y-119.416
G3 X98.241 Y-115.409 J6.3
G2 X109.104 Y-93.082 I144.017 J-56.266
G1 X121.624 Y-71.641
G2 X153.209 Y-37.816 I88.91 J-51.362
X164.177 Y-31.707 I40.782 J-60.323
X175.736 Y-26.807 I123.249 J-274.623
G3 X179.736 Y-20.9 I-2.36 J5.907
G1 X179.724 Y115.887
G3 X175.87 Y119.74 I-3.853
G1 X160.638 Y119.739
G3 X155.5 Y115.718 J-5.293
G2 X134.493 Y76.321 I-88.565 J21.926
X98.477 Y49.934 I-82.617 J74.993
X59.641 Y41.226 I-39.821 J86.63
G1 X19.841 Y41.041
G2 X-14.121 Y47.249 I0.099 J96.54
X-44.426 Y63.79 I43.945 J116.543
X-66.109 Y86.789 I53.75 J72.393
X-78.795 Y115.741 I79.652 J52.156
G3 X-83.902 Y119.724 I-5.107 J-1.283
G1 X-175.672 Y119.718
G3 X-179.525 Y115.865 J-3.853
G1 X-179.524 Y105.565
G3 X-175.67 Y101.71 I3.855
G1 X-131.862 Y101.698
G2 X-88.47 Y90.103 I-0.026 J-87.092
X-80.957 Y85.413 I-61.046 J-106.151
X-77.829 Y77.499 I-4.218 J-6.242
G3 X-75.287 Y69.379 I8.245 J-1.877
G2 X-68.41 Y62.378 I-61.182 J-66.976
X-53.076 Y38.431 I-70.084 J-61.76
X-46.644 Y10.731 I-69.351 J-30.7
X-47.037 Y-8.662 I-162.121 J-6.42
X-51.604 Y-27.514 I-61.567 J4.939
X-58.159 Y-41.117 I-129.998 J54.259
X-66.68 Y-53.584 I-68.371 J37.587
G3 X-66.612 Y-59.36 I3.406 J-2.848
X-61.412 Y-65.092 I173.991 J152.612
G2 X-56.486 Y-71.063 I-44.331 J-41.588
G1 X-34.692 Y-108.045
G2 X-31.021 Y-116.202 I-38.808 J-22.369
G3 X-28.126 Y-124.666 I633.493 J211.947
X-22.321 Y-128.786 I5.805 J2.029
G1 X99.052 Y-128.778
G3 X104.864 Y-124.661 J6.162
G1 X107.927 Y-115.859
G2 X111.792 Y-107.379 I45.868 J-15.784
G1 X130.495 Y-75.002
G2 X157.004 Y-46.552 I75.055 J-43.358
X170.574 Y-38.907 I53.629 J-79.326
X185.161 Y-33.446 I44.397 J-96.39
G3 X189.099 Y-28.189 I-1.539 J5.257
G1 X189.086 Y125.251
G3 X185.232 Y129.103 I-3.853
G1 X153.26 Y129.101
G3 X148.126 Y125.059 J-5.283
G2 X144.991 Y112.682 I-559.52 J135.145
X140.152 Y100.867 I-47.787 J12.671
X117.733 Y73.083 I-96.86 J55.222
X86.71 Y55.416 I-56.28 J62.755
X71.645 Y51.724 I-36.351 J115.747
X56.193 Y50.366 I-15.362 J86.203
G1 X17.55 Y50.525
G2 X-20.042 Y59.477 I0.621 J86.011
